(G-CODE GENERATED BY FLATCAM v8.994 - www.flatcam.org - Version Date: 2020/11/7)

(Name: keyboard-mini-PTH.drl_cnc)
(Type: G-code from Geometry)
(Units: MM)

(Created on Sunday, 03 August 2025 at 15:03)

(This preprocessor is the default preprocessor used by FlatCAM.)
(It is made to work with MACH3 compatible motion controllers.)


(TOOLS DIAMETER: )
(Tool: 1 -> Dia: 0.762)
(Tool: 2 -> Dia: 0.8)
(Tool: 3 -> Dia: 1.0)
(Tool: 4 -> Dia: 2.2)

(FEEDRATE Z: )
(Tool: 1 -> Feedrate: 80.0)
(Tool: 2 -> Feedrate: 80.0)
(Tool: 3 -> Feedrate: 80.0)
(Tool: 4 -> Feedrate: 80.0)

(FEEDRATE RAPIDS: )
(Tool: 1 -> Feedrate Rapids: 1500)
(Tool: 2 -> Feedrate Rapids: 1500)
(Tool: 3 -> Feedrate Rapids: 1500)
(Tool: 4 -> Feedrate Rapids: 1500)

(Z_CUT: )
(Tool: 1 -> Z_Cut: -1.7)
(Tool: 2 -> Z_Cut: -1.7)
(Tool: 3 -> Z_Cut: -1.7)
(Tool: 4 -> Z_Cut: -1.7)

(Tools Offset: )
(Tool: 4 -> Offset Z: 0.0)

(Z_MOVE: )
(Tool: 1 -> Z_Move: 2)
(Tool: 2 -> Z_Move: 2)
(Tool: 3 -> Z_Move: 2)
(Tool: 4 -> Z_Move: 2)

(Z Toolchange: 15 mm)
(X,Y Toolchange: 0.0000, 0.0000 mm)
(Z Start: None mm)
(Z End: 0.5 mm)
(X,Y End: None mm)
(Steps per circle: 64)
(Preprocessor Excellon: default)

(X range:    1.8495 ...   94.2495  mm)
(Y range:    2.0495 ...   65.3995  mm)

(Spindle Speed: 0 RPM)
G21
G90
G94

G01 F80.00

M5
G00 Z15.0000
T4
G00 X0.0000 Y0.0000                
M6
(MSG, Change to Tool Dia = 2.2000 ||| Total drills for tool T4 = 8)
M0
G00 Z15.0000

G01 F80.00
M03
G00 X93.1495 Y64.2995
G01 Z-1.7000
G01 Z0
G00 Z2.0000
G00 X38.4495 Y64.2995
G01 Z-1.7000
G01 Z0
G00 Z2.0000
G00 X3.1995 Y64.2995
G01 Z-1.7000
G01 Z0
G00 Z2.0000
G00 X19.9495 Y26.5495
G01 Z-1.7000
G01 Z0
G00 Z2.0000
G00 X2.9495 Y3.1495
G01 Z-1.7000
G01 Z0
G00 Z2.0000
G00 X19.9495 Y3.1495
G01 Z-1.7000
G01 Z0
G00 Z2.0000
G00 X36.3495 Y3.1495
G01 Z-1.7000
G01 Z0
G00 Z2.0000
G00 X93.1495 Y3.1495
G01 Z-1.7000
G01 Z0
G00 Z2.0000
M05
G00 Z0.50


