(G-CODE GENERATED BY FLATCAM v8.994 - www.flatcam.org - Version Date: 2020/11/7)

(Name: keyboard-mini-B_Cu.gbr_iso_combined_cnc)
(Type: G-code from Geometry)
(Units: MM)

(Created on Saturday, 02 August 2025 at 17:08)

(This preprocessor is the default preprocessor used by FlatCAM.)
(It is made to work with MACH3 compatible motion controllers.)

(TOOL DIAMETER: 0.2 mm)
(Feedrate_XY: 80.0 mm/min)
(Feedrate_Z: 60.0 mm/min)
(Feedrate rapids 1500.0 mm/min)

(Z_Cut: 0.0 mm)
(Z_Move: 2.0 mm)
(Z Start: None mm)
(Z End: 15.0 mm)
(X,Y End: None mm)
(Steps per circle: 64)
(Preprocessor Geometry: default)

(X range:    0.6495 ...   95.4495  mm)
(Y range:    0.8495 ...   66.5995  mm)

(Spindle Speed: 5000.0 RPM)
G21
G90
G94

G01 F80.00

M5
G00 Z15.0000
G00 X0.0000 Y0.0000
T1
M6    
(MSG, Change to Tool Dia = 0.2000)
M0
G00 Z15.0000

M03 S5000.0
G01 F80.00
G00 X2.0679 Y1.0212
G01 F60.00
G01 Z0.0000
G01 F80.00
G01 X1.8352 Y1.1333
G01 X1.6165 Y1.2708
G01 X1.5882 Y1.2933
G01 X1.8056 Y1.5107
G01 X1.8404 Y1.4852
G01 X2.0067 Y1.3857
G01 X2.1796 Y1.3037
G01 X2.1887 Y1.3000
G01 X2.3689 Y1.2356
G01 X2.5545 Y1.1890
G01 X2.5642 Y1.1871
G01 X2.7535 Y1.1591
G01 X2.9495 Y1.1495
G01 X3.1455 Y1.1591
G01 X3.3397 Y1.1879
G01 X3.5253 Y1.2343
G01 X3.5347 Y1.2372
G01 X3.7149 Y1.3017
G01 X3.8879 Y1.3835
G01 X3.8966 Y1.3881
G01 X4.0586 Y1.4852
G01 X4.0934 Y1.5107
G01 X4.3108 Y1.2933
G01 X4.2826 Y1.2708
G01 X4.0638 Y1.1333
G01 X3.8311 Y1.0212
G01 X3.5872 Y0.9359
G01 X3.3354 Y0.8784
G01 X3.0787 Y0.8495
G01 X2.8203 Y0.8495
G01 X2.5636 Y0.8784
G01 X2.3118 Y0.9359
G01 X2.0679 Y1.0212
G00 Z2.0000
G00 X0.6495 Y3.2787
G01 F60.00
G01 Z0.0000
G01 F80.00
G01 X0.6784 Y3.5354
G01 X0.7359 Y3.7872
G01 X0.8212 Y4.0311
G01 X0.9333 Y4.2638
G01 X1.0708 Y4.4825
G01 X1.0933 Y4.5108
G01 X1.3107 Y4.2934
G01 X1.2852 Y4.2586
G01 X1.1857 Y4.0923
G01 X1.1037 Y3.9194
G01 X1.1000 Y3.9103
G01 X1.0356 Y3.7301
G01 X0.9890 Y3.5445
G01 X0.9871 Y3.5348
G01 X0.9591 Y3.3455
G01 X0.9495 Y3.1495
G01 X0.9591 Y2.9535
G01 X0.9879 Y2.7593
G01 X1.0343 Y2.5737
G01 X1.0372 Y2.5643
G01 X1.1017 Y2.3841
G01 X1.1835 Y2.2111
G01 X1.1881 Y2.2024
G01 X1.2852 Y2.0404
G01 X1.3107 Y2.0056
G01 X1.0933 Y1.7882
G01 X1.0708 Y1.8165
G01 X0.9333 Y2.0352
G01 X0.8212 Y2.2679
G01 X0.7359 Y2.5118
G01 X0.6784 Y2.7636
G01 X0.6495 Y3.0203
G01 X0.6495 Y3.2787
G00 Z2.0000
G00 X3.8311 Y5.2778
G01 F60.00
G01 Z0.0000
G01 F80.00
G01 X4.0638 Y5.1657
G01 X4.2825 Y5.0282
G01 X4.3108 Y5.0057
G01 X4.0934 Y4.7883
G01 X4.0586 Y4.8138
G01 X3.8923 Y4.9133
G01 X3.7194 Y4.9953
G01 X3.7103 Y4.9990
G01 X3.5301 Y5.0634
G01 X3.3445 Y5.1100
G01 X3.3348 Y5.1119
G01 X3.1455 Y5.1399
G01 X2.9495 Y5.1495
G01 X2.7535 Y5.1399
G01 X2.5593 Y5.1111
G01 X2.3737 Y5.0647
G01 X2.3643 Y5.0618
G01 X2.1841 Y4.9973
G01 X2.0111 Y4.9155
G01 X2.0024 Y4.9109
G01 X1.8404 Y4.8138
G01 X1.8056 Y4.7883
G01 X1.5882 Y5.0057
G01 X1.6165 Y5.0282
G01 X1.8352 Y5.1657
G01 X2.0679 Y5.2778
G01 X2.3118 Y5.3631
G01 X2.5636 Y5.4206
G01 X2.8203 Y5.4495
G01 X3.0787 Y5.4495
G01 X3.3354 Y5.4206
G01 X3.5872 Y5.3631
G01 X3.8311 Y5.2778
G00 Z2.0000
G00 X5.2495 Y3.2787
G01 F60.00
G01 Z0.0000
G01 F80.00
G01 X5.2495 Y3.0203
G01 X5.2206 Y2.7636
G01 X5.1631 Y2.5118
G01 X5.0778 Y2.2679
G01 X4.9657 Y2.0352
G01 X4.8282 Y1.8165
G01 X4.8057 Y1.7882
G01 X4.5883 Y2.0056
G01 X4.6138 Y2.0404
G01 X4.7109 Y2.2024
G01 X4.7155 Y2.2111
G01 X4.7973 Y2.3841
G01 X4.8618 Y2.5643
G01 X4.8647 Y2.5737
G01 X4.9111 Y2.7593
G01 X4.9399 Y2.9535
G01 X4.9495 Y3.1495
G01 X4.9399 Y3.3455
G01 X4.9119 Y3.5348
G01 X4.9100 Y3.5445
G01 X4.8634 Y3.7301
G01 X4.7990 Y3.9103
G01 X4.7953 Y3.9194
G01 X4.7133 Y4.0923
G01 X4.6138 Y4.2586
G01 X4.5883 Y4.2934
G01 X4.8057 Y4.5108
G01 X4.8282 Y4.4825
G01 X4.9657 Y4.2638
G01 X5.0778 Y4.0311
G01 X5.1631 Y3.7872
G01 X5.2206 Y3.5354
G01 X5.2495 Y3.2787
G00 Z2.0000
G00 X17.6495 Y3.2787
G01 F60.00
G01 Z0.0000
G01 F80.00
G01 X17.6784 Y3.5354
G01 X17.7359 Y3.7872
G01 X17.8212 Y4.0311
G01 X17.9333 Y4.2638
G01 X18.0708 Y4.4825
G01 X18.0933 Y4.5108
G01 X18.3107 Y4.2934
G01 X18.2852 Y4.2586
G01 X18.1857 Y4.0923
G01 X18.1037 Y3.9194
G01 X18.1000 Y3.9103
G01 X18.0356 Y3.7301
G01 X17.9890 Y3.5445
G01 X17.9871 Y3.5348
G01 X17.9591 Y3.3455
G01 X17.9495 Y3.1495
G01 X17.9591 Y2.9535
G01 X17.9879 Y2.7593
G01 X18.0343 Y2.5737
G01 X18.0372 Y2.5643
G01 X18.1017 Y2.3841
G01 X18.1835 Y2.2111
G01 X18.1881 Y2.2024
G01 X18.2852 Y2.0404
G01 X18.3107 Y2.0056
G01 X18.0933 Y1.7882
G01 X18.0708 Y1.8165
G01 X17.9333 Y2.0352
G01 X17.8212 Y2.2679
G01 X17.7359 Y2.5118
G01 X17.6784 Y2.7636
G01 X17.6495 Y3.0203
G01 X17.6495 Y3.2787
G00 Z2.0000
G00 X19.0679 Y1.0212
G01 F60.00
G01 Z0.0000
G01 F80.00
G01 X18.8352 Y1.1333
G01 X18.6165 Y1.2708
G01 X18.5882 Y1.2933
G01 X18.8056 Y1.5107
G01 X18.8404 Y1.4852
G01 X19.0067 Y1.3857
G01 X19.1796 Y1.3037
G01 X19.1887 Y1.3000
G01 X19.3689 Y1.2356
G01 X19.5545 Y1.1890
G01 X19.5642 Y1.1871
G01 X19.7535 Y1.1591
G01 X19.9495 Y1.1495
G01 X20.1455 Y1.1591
G01 X20.3397 Y1.1879
G01 X20.5253 Y1.2343
G01 X20.5347 Y1.2372
G01 X20.7149 Y1.3017
G01 X20.8879 Y1.3835
G01 X20.8966 Y1.3881
G01 X21.0586 Y1.4852
G01 X21.0934 Y1.5107
G01 X21.3108 Y1.2933
G01 X21.2826 Y1.2708
G01 X21.0638 Y1.1333
G01 X20.8311 Y1.0212
G01 X20.5872 Y0.9359
G01 X20.3354 Y0.8784
G01 X20.0787 Y0.8495
G01 X19.8203 Y0.8495
G01 X19.5636 Y0.8784
G01 X19.3118 Y0.9359
G01 X19.0679 Y1.0212
G00 Z2.0000
G00 X22.2495 Y3.2787
G01 F60.00
G01 Z0.0000
G01 F80.00
G01 X22.2495 Y3.0203
G01 X22.2206 Y2.7636
G01 X22.1631 Y2.5118
G01 X22.0778 Y2.2679
G01 X21.9657 Y2.0352
G01 X21.8282 Y1.8165
G01 X21.8057 Y1.7882
G01 X21.5883 Y2.0056
G01 X21.6138 Y2.0404
G01 X21.7109 Y2.2024
G01 X21.7155 Y2.2111
G01 X21.7973 Y2.3841
G01 X21.8618 Y2.5643
G01 X21.8647 Y2.5737
G01 X21.9111 Y2.7593
G01 X21.9399 Y2.9535
G01 X21.9495 Y3.1495
G01 X21.9399 Y3.3455
G01 X21.9119 Y3.5348
G01 X21.9100 Y3.5445
G01 X21.8634 Y3.7301
G01 X21.7990 Y3.9103
G01 X21.7953 Y3.9194
G01 X21.7133 Y4.0923
G01 X21.6138 Y4.2586
G01 X21.5883 Y4.2934
G01 X21.8057 Y4.5108
G01 X21.8282 Y4.4825
G01 X21.9657 Y4.2638
G01 X22.0778 Y4.0311
G01 X22.1631 Y3.7872
G01 X22.2206 Y3.5354
G01 X22.2495 Y3.2787
G00 Z2.0000
G00 X20.8311 Y5.2778
G01 F60.00
G01 Z0.0000
G01 F80.00
G01 X21.0638 Y5.1657
G01 X21.2825 Y5.0282
G01 X21.3108 Y5.0057
G01 X21.0934 Y4.7883
G01 X21.0586 Y4.8138
G01 X20.8923 Y4.9133
G01 X20.7194 Y4.9953
G01 X20.7103 Y4.9990
G01 X20.5301 Y5.0634
G01 X20.3445 Y5.1100
G01 X20.3348 Y5.1119
G01 X20.1455 Y5.1399
G01 X19.9495 Y5.1495
G01 X19.7535 Y5.1399
G01 X19.5593 Y5.1111
G01 X19.3737 Y5.0647
G01 X19.3643 Y5.0618
G01 X19.1841 Y4.9973
G01 X19.0111 Y4.9155
G01 X19.0024 Y4.9109
G01 X18.8404 Y4.8138
G01 X18.8056 Y4.7883
G01 X18.5882 Y5.0057
G01 X18.6165 Y5.0282
G01 X18.8352 Y5.1657
G01 X19.0679 Y5.2778
G01 X19.3118 Y5.3631
G01 X19.5636 Y5.4206
G01 X19.8203 Y5.4495
G01 X20.0787 Y5.4495
G01 X20.3354 Y5.4206
G01 X20.5872 Y5.3631
G01 X20.8311 Y5.2778
G00 Z2.0000
G00 X19.1084 Y14.5715
G01 F60.00
G01 Z0.0000
G01 F80.00
G01 X19.0969 Y14.5574
G01 X9.3897 Y24.2647
G01 X9.3897 Y30.7578
G01 X9.4434 Y30.7180
G01 X9.4550 Y30.7098
G01 X9.4671 Y30.7022
G01 X9.5312 Y30.6637
G01 X9.5436 Y30.6567
G01 X9.5563 Y30.6503
G01 X9.6239 Y30.6183
G01 X9.6369 Y30.6126
G01 X9.6502 Y30.6075
G01 X9.7206 Y30.5823
G01 X9.7341 Y30.5778
G01 X9.7478 Y30.5740
G01 X9.8204 Y30.5558
G01 X9.8413 Y30.5514
G01 X9.9223 Y30.5393
G01 X9.9364 Y30.5376
G01 X9.9506 Y30.5365
G01 X10.0253 Y30.5328
G01 X10.0395 Y30.5325
G01 X10.0537 Y30.5328
G01 X10.1355 Y30.5370
G01 X10.1567 Y30.5393
G01 X10.2307 Y30.5503
G01 X10.2447 Y30.5527
G01 X10.2586 Y30.5558
G01 X10.3380 Y30.5758
G01 X10.3584 Y30.5823
G01 X10.4288 Y30.6075
G01 X10.4421 Y30.6126
G01 X10.4551 Y30.6183
G01 X10.5227 Y30.6503
G01 X10.5354 Y30.6567
G01 X10.5478 Y30.6637
G01 X10.6123 Y30.7024
G01 X10.6124 Y24.0294
G01 X10.6144 Y23.9879
G01 X10.6154 Y23.9738
G01 X10.6222 Y23.9256
G01 X10.6261 Y23.9046
G01 X10.6361 Y23.8644
G01 X10.6399 Y23.8507
G01 X10.6444 Y23.8372
G01 X10.6584 Y23.7981
G01 X10.6668 Y23.7785
G01 X10.6879 Y23.7347
G01 X10.7126 Y23.6929
G01 X10.7242 Y23.6750
G01 X10.7532 Y23.6359
G01 X10.7669 Y23.6196
G01 X10.7998 Y23.5838
G01 X18.8299 Y15.5537
G01 X18.8167 Y15.4654
G01 X18.8150 Y15.4512
G01 X18.8139 Y15.4370
G01 X18.8098 Y15.3537
G01 X18.8095 Y15.3395
G01 X18.8098 Y15.3253
G01 X18.8139 Y15.2420
G01 X18.8150 Y15.2278
G01 X18.8167 Y15.2136
G01 X18.8290 Y15.1311
G01 X18.8314 Y15.1171
G01 X18.8345 Y15.1032
G01 X18.8566 Y15.0154
G01 X18.8631 Y14.9951
G01 X18.8912 Y14.9165
G01 X18.8963 Y14.9032
G01 X18.9020 Y14.8902
G01 X18.9377 Y14.8148
G01 X18.9475 Y14.7959
G01 X18.9940 Y14.7182
G01 X19.0057 Y14.7003
G01 X19.0638 Y14.6218
G01 X19.0776 Y14.6055
G01 X19.1084 Y14.5715
G00 Z2.0000
G00 X18.8548 Y17.3395
G01 F60.00
G01 Z0.0000
G01 F80.00
G01 X18.9455 Y17.3395
G01 X18.9940 Y17.2582
G01 X19.0016 Y17.2461
G01 X19.0098 Y17.2345
G01 X19.0595 Y17.1675
G01 X19.0683 Y17.1563
G01 X19.0776 Y17.1455
G01 X19.1336 Y17.0837
G01 X19.1434 Y17.0734
G01 X19.1537 Y17.0636
G01 X19.2155 Y17.0076
G01 X19.2263 Y16.9983
G01 X19.2375 Y16.9895
G01 X19.3045 Y16.9398
G01 X19.3161 Y16.9316
G01 X19.3282 Y16.9240
G01 X19.3997 Y16.8811
G01 X19.4184 Y16.8708
G01 X19.5002 Y16.8320
G01 X19.5132 Y16.8263
G01 X19.5265 Y16.8212
G01 X19.6051 Y16.7931
G01 X19.6186 Y16.7886
G01 X19.6323 Y16.7848
G01 X19.7132 Y16.7645
G01 X19.7271 Y16.7614
G01 X19.7411 Y16.7590
G01 X19.8236 Y16.7467
G01 X19.8378 Y16.7450
G01 X19.8520 Y16.7439
G01 X19.9353 Y16.7398
G01 X19.9495 Y16.7395
G01 X19.9637 Y16.7398
G01 X20.0356 Y16.7434
G01 X20.0261 Y16.7341
G01 X20.0163 Y16.7235
G01 X20.0071 Y16.7125
G01 X19.9984 Y16.7010
G01 X19.9903 Y16.6891
G01 X19.9828 Y16.6768
G01 X19.9759 Y16.6642
G01 X19.9696 Y16.6512
G01 X19.9368 Y16.5736
G01 X19.9296 Y16.5532
G01 X19.9257 Y16.5393
G01 X19.9211 Y16.5182
G01 X19.9182 Y16.4968
G01 X19.9169 Y16.4782
G01 X19.8520 Y16.4751
G01 X19.8378 Y16.4740
G01 X19.8236 Y16.4723
G01 X19.7353 Y16.4591
G01 X18.8548 Y17.3395
G00 Z2.0000
G00 X19.7947 Y19.2795
G01 F60.00
G01 Z0.0000
G01 F80.00
G01 X20.1073 Y19.2795
G01 X20.1048 Y19.2615
G01 X20.1035 Y19.2471
G01 X20.1029 Y19.2328
G01 X20.1033 Y19.2112
G01 X20.1053 Y19.1897
G01 X20.1075 Y19.1754
G01 X20.1104 Y19.1613
G01 X20.1141 Y19.1474
G01 X20.1208 Y19.1269
G01 X20.1261 Y19.1135
G01 X20.1611 Y19.0369
G01 X20.1712 Y19.0179
G01 X20.1787 Y19.0058
G01 X20.1865 Y18.9943
G01 X20.1719 Y18.9976
G01 X20.1579 Y19.0000
G01 X20.0754 Y19.0123
G01 X20.0612 Y19.0140
G01 X20.0470 Y19.0151
G01 X19.9637 Y19.0192
G01 X19.9495 Y19.0195
G01 X19.9353 Y19.0192
G01 X19.8520 Y19.0151
G01 X19.8378 Y19.0140
G01 X19.8236 Y19.0123
G01 X19.7411 Y19.0000
G01 X19.7271 Y18.9976
G01 X19.7127 Y18.9944
G01 X19.7230 Y19.0081
G01 X19.7343 Y19.0257
G01 X19.7412 Y19.0378
G01 X19.7504 Y19.0567
G01 X19.7557 Y19.0696
G01 X19.7605 Y19.0827
G01 X19.7825 Y19.1490
G01 X19.7867 Y19.1628
G01 X19.7903 Y19.1767
G01 X19.7931 Y19.1909
G01 X19.7952 Y19.2051
G01 X19.7966 Y19.2194
G01 X19.7973 Y19.2338
G01 X19.7973 Y19.2482
G01 X19.7965 Y19.2626
G01 X19.7947 Y19.2795
G00 Z2.0000
G00 X18.3859 Y24.9858
G01 F60.00
G01 Z0.0000
G01 F80.00
G01 X18.3843 Y25.0047
G01 X18.3819 Y25.0215
G01 X18.4009 Y25.0009
G01 X18.4182 Y24.9848
G01 X18.4045 Y24.9857
G01 X18.3859 Y24.9858
G00 Z2.0000
G00 X20.5295 Y28.9093
G01 F60.00
G01 Z0.0000
G01 F80.00
G01 X20.5271 Y28.8915
G01 X20.5257 Y28.8771
G01 X20.5251 Y28.8628
G01 X20.5252 Y28.8484
G01 X20.5260 Y28.8340
G01 X20.5275 Y28.8197
G01 X20.5297 Y28.8054
G01 X20.5344 Y28.7843
G01 X20.5406 Y28.7636
G01 X20.5483 Y28.7435
G01 X20.5833 Y28.6669
G01 X20.5898 Y28.6543
G01 X20.5975 Y28.6412
G01 X20.5852 Y28.6452
G01 X20.5715 Y28.6490
G01 X20.3906 Y28.6943
G01 X20.3767 Y28.6974
G01 X20.3627 Y28.6999
G01 X20.1783 Y28.7272
G01 X20.1571 Y28.7296
G01 X19.9637 Y28.7392
G01 X19.9424 Y28.7394
G01 X19.7419 Y28.7296
G01 X19.7207 Y28.7272
G01 X19.6141 Y28.7114
G01 X19.6228 Y28.7215
G01 X19.6317 Y28.7329
G01 X19.6400 Y28.7446
G01 X19.6477 Y28.7568
G01 X19.6547 Y28.7693
G01 X19.6909 Y28.8374
G01 X19.6970 Y28.8504
G01 X19.7050 Y28.8705
G01 X19.7115 Y28.8911
G01 X19.7158 Y28.9093
G01 X20.5295 Y28.9093
G00 Z2.0000
G00 X21.8057 Y27.9108
G01 F60.00
G01 Z0.0000
G01 F80.00
G01 X21.8282 Y27.8825
G01 X21.9657 Y27.6638
G01 X22.0778 Y27.4311
G01 X22.1631 Y27.1872
G01 X22.2206 Y26.9354
G01 X22.2495 Y26.6787
G01 X22.2495 Y26.4203
G01 X22.2206 Y26.1636
G01 X22.1631 Y25.9118
G01 X22.0778 Y25.6679
G01 X21.9657 Y25.4352
G01 X21.8282 Y25.2165
G01 X21.8057 Y25.1882
G01 X21.5883 Y25.4056
G01 X21.6138 Y25.4404
G01 X21.7109 Y25.6024
G01 X21.7155 Y25.6111
G01 X21.7973 Y25.7841
G01 X21.8618 Y25.9643
G01 X21.8647 Y25.9737
G01 X21.9111 Y26.1593
G01 X21.9399 Y26.3535
G01 X21.9495 Y26.5495
G01 X21.9399 Y26.7455
G01 X21.9119 Y26.9348
G01 X21.9100 Y26.9445
G01 X21.8634 Y27.1301
G01 X21.7990 Y27.3103
G01 X21.7953 Y27.3194
G01 X21.7133 Y27.4923
G01 X21.6138 Y27.6586
G01 X21.5883 Y27.6934
G01 X21.8057 Y27.9108
G00 Z2.0000
G00 X22.6546 Y30.7220
G01 F60.00
G01 Z0.0000
G01 F80.00
G01 X22.4879 Y30.7551
G01 X22.3310 Y30.8202
G01 X22.1897 Y30.9146
G01 X22.0696 Y31.0347
G01 X21.9752 Y31.1760
G01 X21.9101 Y31.3329
G01 X21.8770 Y31.4996
G01 X21.8770 Y31.6694
G01 X21.9101 Y31.8361
G01 X21.9752 Y31.9930
G01 X22.0696 Y32.1343
G01 X22.1897 Y32.2544
G01 X22.3310 Y32.3488
G01 X22.4879 Y32.4139
G01 X22.6545 Y32.4470
G01 X22.8245 Y32.4470
G01 X22.9911 Y32.4139
G01 X23.1480 Y32.3488
G01 X23.2893 Y32.2544
G01 X23.4094 Y32.1343
G01 X23.5038 Y31.9930
G01 X23.5689 Y31.8361
G01 X23.6020 Y31.6695
G01 X23.6020 Y31.4995
G01 X23.5689 Y31.3329
G01 X23.5038 Y31.1760
G01 X23.4094 Y31.0347
G01 X23.2893 Y30.9146
G01 X23.1480 Y30.8202
G01 X22.9911 Y30.7551
G01 X22.8245 Y30.7220
G01 X22.6546 Y30.7220
G00 Z2.0000
G00 X21.8776 Y31.5894
G01 F60.00
G01 Z0.0000
G01 F80.00
G01 X21.8776 Y31.5796
G01 X21.8817 Y31.5000
G01 X21.8941 Y31.4163
G01 X21.9146 Y31.3343
G01 X21.9431 Y31.2546
G01 X21.9793 Y31.1782
G01 X22.0228 Y31.1056
G01 X22.0732 Y31.0377
G01 X22.1300 Y30.9750
G01 X22.1927 Y30.9182
G01 X22.2606 Y30.8678
G01 X22.3332 Y30.8243
G01 X22.4096 Y30.7881
G01 X22.4893 Y30.7596
G01 X22.5713 Y30.7391
G01 X22.6550 Y30.7267
G01 X22.7395 Y30.7225
G01 X22.8240 Y30.7267
G01 X22.9077 Y30.7391
G01 X22.9897 Y30.7596
G01 X23.0694 Y30.7881
G01 X23.1458 Y30.8243
G01 X23.2184 Y30.8678
G01 X23.2863 Y30.9182
G01 X23.3490 Y30.9750
G01 X23.4058 Y31.0377
G01 X23.4562 Y31.1056
G01 X23.4997 Y31.1782
G01 X23.5359 Y31.2546
G01 X23.5644 Y31.3343
G01 X23.5849 Y31.4163
G01 X23.5973 Y31.5000
G01 X23.6015 Y31.5845
G01 X23.5973 Y31.6690
G01 X23.5849 Y31.7527
G01 X23.5644 Y31.8347
G01 X23.5359 Y31.9144
G01 X23.4997 Y31.9908
G01 X23.4562 Y32.0634
G01 X23.4058 Y32.1313
G01 X23.3490 Y32.1940
G01 X23.2863 Y32.2508
G01 X23.2184 Y32.3012
G01 X23.1458 Y32.3447
G01 X23.0694 Y32.3809
G01 X22.9897 Y32.4094
G01 X22.9077 Y32.4299
G01 X22.8240 Y32.4423
G01 X22.7395 Y32.4465
G01 X22.6550 Y32.4423
G01 X22.5713 Y32.4299
G01 X22.4893 Y32.4094
G01 X22.4096 Y32.3809
G01 X22.3332 Y32.3447
G01 X22.2606 Y32.3012
G01 X22.1927 Y32.2508
G01 X22.1300 Y32.1940
G01 X22.0732 Y32.1313
G01 X22.0228 Y32.0634
G01 X21.9793 Y31.9908
G01 X21.9431 Y31.9144
G01 X21.9146 Y31.8347
G01 X21.8941 Y31.7527
G01 X21.8817 Y31.6690
G01 X21.8776 Y31.5894
G00 Z2.0000
G00 X20.8626 Y33.5739
G01 F60.00
G01 Z0.0000
G01 F80.00
G01 X20.8689 Y33.5815
G01 X20.9162 Y33.6456
G01 X20.9597 Y33.7182
G01 X20.9959 Y33.7946
G01 X21.0244 Y33.8743
G01 X21.0449 Y33.9563
G01 X21.0573 Y34.0400
G01 X21.0615 Y34.1245
G01 X21.0573 Y34.2090
G01 X21.0449 Y34.2927
G01 X21.0244 Y34.3747
G01 X20.9959 Y34.4544
G01 X20.9597 Y34.5308
G01 X20.9162 Y34.6034
G01 X20.8658 Y34.6713
G01 X20.8090 Y34.7340
G01 X20.7463 Y34.7908
G01 X20.6784 Y34.8412
G01 X20.6058 Y34.8847
G01 X20.5294 Y34.9209
G01 X20.4497 Y34.9494
G01 X20.3677 Y34.9699
G01 X20.2840 Y34.9823
G01 X20.1995 Y34.9865
G01 X20.1150 Y34.9823
G01 X20.0313 Y34.9699
G01 X19.9493 Y34.9494
G01 X19.8696 Y34.9209
G01 X19.7932 Y34.8847
G01 X19.7206 Y34.8412
G01 X19.6527 Y34.7908
G01 X19.5900 Y34.7340
G01 X19.5332 Y34.6713
G01 X19.4828 Y34.6034
G01 X19.4393 Y34.5308
G01 X19.4031 Y34.4544
G01 X19.3746 Y34.3747
G01 X19.3541 Y34.2927
G01 X19.3417 Y34.2090
G01 X19.3375 Y34.1245
G01 X19.3417 Y34.0400
G01 X19.3541 Y33.9563
G01 X19.3746 Y33.8743
G01 X19.4031 Y33.7946
G01 X19.4393 Y33.7182
G01 X19.4828 Y33.6456
G01 X19.5332 Y33.5777
G01 X19.5900 Y33.5150
G01 X19.6527 Y33.4582
G01 X19.7206 Y33.4078
G01 X19.7932 Y33.3643
G01 X19.8696 Y33.3281
G01 X19.9493 Y33.2996
G01 X20.0313 Y33.2791
G01 X20.1150 Y33.2667
G01 X20.1995 Y33.2625
G01 X20.2840 Y33.2667
G01 X20.3677 Y33.2791
G01 X20.4497 Y33.2996
G01 X20.5294 Y33.3281
G01 X20.6058 Y33.3643
G01 X20.6784 Y33.4078
G01 X20.7463 Y33.4582
G01 X20.8090 Y33.5150
G01 X20.8626 Y33.5739
G00 Z2.0000
G00 X20.1146 Y33.2620
G01 F60.00
G01 Z0.0000
G01 F80.00
G01 X19.9479 Y33.2951
G01 X19.7910 Y33.3602
G01 X19.6497 Y33.4546
G01 X19.5296 Y33.5747
G01 X19.4352 Y33.7160
G01 X19.3701 Y33.8729
G01 X19.3370 Y34.0396
G01 X19.3370 Y34.2094
G01 X19.3701 Y34.3761
G01 X19.4352 Y34.5330
G01 X19.5296 Y34.6743
G01 X19.6497 Y34.7944
G01 X19.7910 Y34.8888
G01 X19.9479 Y34.9539
G01 X20.1145 Y34.9870
G01 X20.2845 Y34.9870
G01 X20.4511 Y34.9539
G01 X20.6080 Y34.8888
G01 X20.7493 Y34.7944
G01 X20.8694 Y34.6743
G01 X20.9638 Y34.5330
G01 X21.0289 Y34.3761
G01 X21.0620 Y34.2095
G01 X21.0620 Y34.0395
G01 X21.0289 Y33.8729
G01 X20.9638 Y33.7160
G01 X20.8694 Y33.5747
G01 X20.7493 Y33.4546
G01 X20.6080 Y33.3602
G01 X20.4511 Y33.2951
G01 X20.2845 Y33.2620
G01 X20.1146 Y33.2620
G00 Z2.0000
G00 X21.8776 Y34.1294
G01 F60.00
G01 Z0.0000
G01 F80.00
G01 X21.8776 Y34.1196
G01 X21.8817 Y34.0400
G01 X21.8941 Y33.9563
G01 X21.9146 Y33.8743
G01 X21.9431 Y33.7946
G01 X21.9793 Y33.7182
G01 X22.0228 Y33.6456
G01 X22.0732 Y33.5777
G01 X22.1300 Y33.5150
G01 X22.1927 Y33.4582
G01 X22.2606 Y33.4078
G01 X22.3332 Y33.3643
G01 X22.4096 Y33.3281
G01 X22.4893 Y33.2996
G01 X22.5713 Y33.2791
G01 X22.6550 Y33.2667
G01 X22.7395 Y33.2625
G01 X22.8240 Y33.2667
G01 X22.9077 Y33.2791
G01 X22.9897 Y33.2996
G01 X23.0694 Y33.3281
G01 X23.1458 Y33.3643
G01 X23.2184 Y33.4078
G01 X23.2863 Y33.4582
G01 X23.3490 Y33.5150
G01 X23.4058 Y33.5777
G01 X23.4562 Y33.6456
G01 X23.4997 Y33.7182
G01 X23.5359 Y33.7946
G01 X23.5644 Y33.8743
G01 X23.5849 Y33.9563
G01 X23.5973 Y34.0400
G01 X23.6015 Y34.1245
G01 X23.5973 Y34.2090
G01 X23.5849 Y34.2927
G01 X23.5644 Y34.3747
G01 X23.5359 Y34.4544
G01 X23.4997 Y34.5308
G01 X23.4562 Y34.6034
G01 X23.4058 Y34.6713
G01 X23.3490 Y34.7340
G01 X23.2863 Y34.7908
G01 X23.2184 Y34.8412
G01 X23.1458 Y34.8847
G01 X23.0694 Y34.9209
G01 X22.9897 Y34.9494
G01 X22.9077 Y34.9699
G01 X22.8240 Y34.9823
G01 X22.7395 Y34.9865
G01 X22.6550 Y34.9823
G01 X22.5713 Y34.9699
G01 X22.4893 Y34.9494
G01 X22.4096 Y34.9209
G01 X22.3332 Y34.8847
G01 X22.2606 Y34.8412
G01 X22.1927 Y34.7908
G01 X22.1300 Y34.7340
G01 X22.0732 Y34.6713
G01 X22.0228 Y34.6034
G01 X21.9793 Y34.5308
G01 X21.9431 Y34.4544
G01 X21.9146 Y34.3747
G01 X21.8941 Y34.2927
G01 X21.8817 Y34.2090
G01 X21.8776 Y34.1294
G00 Z2.0000
G00 X21.8770 Y34.2094
G01 F60.00
G01 Z0.0000
G01 F80.00
G01 X21.9101 Y34.3761
G01 X21.9752 Y34.5330
G01 X22.0696 Y34.6743
G01 X22.1897 Y34.7944
G01 X22.3310 Y34.8888
G01 X22.4879 Y34.9539
G01 X22.6545 Y34.9870
G01 X22.8245 Y34.9870
G01 X22.9911 Y34.9539
G01 X23.1480 Y34.8888
G01 X23.2893 Y34.7944
G01 X23.4094 Y34.6743
G01 X23.5038 Y34.5330
G01 X23.5689 Y34.3761
G01 X23.6020 Y34.2095
G01 X23.6020 Y34.0395
G01 X23.5689 Y33.8729
G01 X23.5038 Y33.7160
G01 X23.4094 Y33.5747
G01 X23.2893 Y33.4546
G01 X23.1480 Y33.3602
G01 X22.9911 Y33.2951
G01 X22.8245 Y33.2620
G01 X22.6546 Y33.2620
G01 X22.4879 Y33.2951
G01 X22.3310 Y33.3602
G01 X22.1897 Y33.4546
G01 X22.0696 Y33.5747
G01 X21.9752 Y33.7160
G01 X21.9101 Y33.8729
G01 X21.8770 Y34.0396
G01 X21.8770 Y34.2094
G00 Z2.0000
G00 X22.6546 Y35.8020
G01 F60.00
G01 Z0.0000
G01 F80.00
G01 X22.4879 Y35.8351
G01 X22.3310 Y35.9002
G01 X22.1897 Y35.9946
G01 X22.0696 Y36.1147
G01 X21.9752 Y36.2560
G01 X21.9101 Y36.4129
G01 X21.8770 Y36.5796
G01 X21.8770 Y36.7494
G01 X21.9101 Y36.9161
G01 X21.9752 Y37.0730
G01 X22.0696 Y37.2143
G01 X22.1897 Y37.3344
G01 X22.3310 Y37.4288
G01 X22.4879 Y37.4939
G01 X22.6545 Y37.5270
G01 X22.8245 Y37.5270
G01 X22.9911 Y37.4939
G01 X23.1480 Y37.4288
G01 X23.2893 Y37.3344
G01 X23.4094 Y37.2143
G01 X23.5038 Y37.0730
G01 X23.5689 Y36.9161
G01 X23.6020 Y36.7495
G01 X23.6020 Y36.5795
G01 X23.5689 Y36.4129
G01 X23.5038 Y36.2560
G01 X23.4094 Y36.1147
G01 X23.2893 Y35.9946
G01 X23.1480 Y35.9002
G01 X22.9911 Y35.8351
G01 X22.8245 Y35.8020
G01 X22.6546 Y35.8020
G00 Z2.0000
G00 X21.8776 Y36.6694
G01 F60.00
G01 Z0.0000
G01 F80.00
G01 X21.8776 Y36.6596
G01 X21.8817 Y36.5800
G01 X21.8941 Y36.4963
G01 X21.9146 Y36.4143
G01 X21.9431 Y36.3346
G01 X21.9793 Y36.2582
G01 X22.0228 Y36.1856
G01 X22.0732 Y36.1177
G01 X22.1300 Y36.0550
G01 X22.1927 Y35.9982
G01 X22.2606 Y35.9478
G01 X22.3332 Y35.9043
G01 X22.4096 Y35.8681
G01 X22.4893 Y35.8396
G01 X22.5713 Y35.8191
G01 X22.6550 Y35.8067
G01 X22.7395 Y35.8025
G01 X22.8240 Y35.8067
G01 X22.9077 Y35.8191
G01 X22.9897 Y35.8396
G01 X23.0694 Y35.8681
G01 X23.1458 Y35.9043
G01 X23.2184 Y35.9478
G01 X23.2863 Y35.9982
G01 X23.3490 Y36.0550
G01 X23.4058 Y36.1177
G01 X23.4562 Y36.1856
G01 X23.4997 Y36.2582
G01 X23.5359 Y36.3346
G01 X23.5644 Y36.4143
G01 X23.5849 Y36.4963
G01 X23.5973 Y36.5800
G01 X23.6015 Y36.6645
G01 X23.5973 Y36.7490
G01 X23.5849 Y36.8327
G01 X23.5644 Y36.9147
G01 X23.5359 Y36.9944
G01 X23.4997 Y37.0708
G01 X23.4562 Y37.1434
G01 X23.4058 Y37.2113
G01 X23.3490 Y37.2740
G01 X23.2863 Y37.3308
G01 X23.2184 Y37.3812
G01 X23.1458 Y37.4247
G01 X23.0694 Y37.4609
G01 X22.9897 Y37.4894
G01 X22.9077 Y37.5099
G01 X22.8240 Y37.5223
G01 X22.7395 Y37.5265
G01 X22.6550 Y37.5223
G01 X22.5713 Y37.5099
G01 X22.4893 Y37.4894
G01 X22.4096 Y37.4609
G01 X22.3332 Y37.4247
G01 X22.2606 Y37.3812
G01 X22.1927 Y37.3308
G01 X22.1300 Y37.2740
G01 X22.0732 Y37.2113
G01 X22.0228 Y37.1434
G01 X21.9793 Y37.0708
G01 X21.9431 Y36.9944
G01 X21.9146 Y36.9147
G01 X21.8941 Y36.8327
G01 X21.8817 Y36.7490
G01 X21.8776 Y36.6694
G00 Z2.0000
G00 X22.6546 Y38.3420
G01 F60.00
G01 Z0.0000
G01 F80.00
G01 X22.4879 Y38.3751
G01 X22.3310 Y38.4402
G01 X22.1897 Y38.5346
G01 X22.0696 Y38.6547
G01 X21.9752 Y38.7960
G01 X21.9101 Y38.9529
G01 X21.8770 Y39.1196
G01 X21.8770 Y39.2894
G01 X21.9101 Y39.4561
G01 X21.9752 Y39.6130
G01 X22.0696 Y39.7543
G01 X22.1897 Y39.8744
G01 X22.3310 Y39.9688
G01 X22.4879 Y40.0339
G01 X22.6545 Y40.0670
G01 X22.8245 Y40.0670
G01 X22.9911 Y40.0339
G01 X23.1480 Y39.9688
G01 X23.2893 Y39.8744
G01 X23.4094 Y39.7543
G01 X23.5038 Y39.6130
G01 X23.5689 Y39.4561
G01 X23.6020 Y39.2895
G01 X23.6020 Y39.1195
G01 X23.5689 Y38.9529
G01 X23.5038 Y38.7960
G01 X23.4094 Y38.6547
G01 X23.2893 Y38.5346
G01 X23.1480 Y38.4402
G01 X22.9911 Y38.3751
G01 X22.8245 Y38.3420
G01 X22.6546 Y38.3420
G00 Z2.0000
G00 X21.8776 Y39.2094
G01 F60.00
G01 Z0.0000
G01 F80.00
G01 X21.8776 Y39.1996
G01 X21.8817 Y39.1200
G01 X21.8941 Y39.0363
G01 X21.9146 Y38.9543
G01 X21.9431 Y38.8746
G01 X21.9793 Y38.7982
G01 X22.0228 Y38.7256
G01 X22.0732 Y38.6577
G01 X22.1300 Y38.5950
G01 X22.1927 Y38.5382
G01 X22.2606 Y38.4878
G01 X22.3332 Y38.4443
G01 X22.4096 Y38.4081
G01 X22.4893 Y38.3796
G01 X22.5713 Y38.3591
G01 X22.6550 Y38.3467
G01 X22.7395 Y38.3425
G01 X22.8240 Y38.3467
G01 X22.9077 Y38.3591
G01 X22.9897 Y38.3796
G01 X23.0694 Y38.4081
G01 X23.1458 Y38.4443
G01 X23.2184 Y38.4878
G01 X23.2863 Y38.5382
G01 X23.3490 Y38.5950
G01 X23.4058 Y38.6577
G01 X23.4562 Y38.7256
G01 X23.4997 Y38.7982
G01 X23.5359 Y38.8746
G01 X23.5644 Y38.9543
G01 X23.5849 Y39.0363
G01 X23.5973 Y39.1200
G01 X23.6015 Y39.2045
G01 X23.5973 Y39.2890
G01 X23.5849 Y39.3727
G01 X23.5644 Y39.4547
G01 X23.5359 Y39.5344
G01 X23.4997 Y39.6108
G01 X23.4562 Y39.6834
G01 X23.4058 Y39.7513
G01 X23.3490 Y39.8140
G01 X23.2863 Y39.8708
G01 X23.2184 Y39.9212
G01 X23.1458 Y39.9647
G01 X23.0694 Y40.0009
G01 X22.9897 Y40.0294
G01 X22.9077 Y40.0499
G01 X22.8240 Y40.0623
G01 X22.7395 Y40.0665
G01 X22.6550 Y40.0623
G01 X22.5713 Y40.0499
G01 X22.4893 Y40.0294
G01 X22.4096 Y40.0009
G01 X22.3332 Y39.9647
G01 X22.2606 Y39.9212
G01 X22.1927 Y39.8708
G01 X22.1300 Y39.8140
G01 X22.0732 Y39.7513
G01 X22.0228 Y39.6834
G01 X21.9793 Y39.6108
G01 X21.9431 Y39.5344
G01 X21.9146 Y39.4547
G01 X21.8941 Y39.3727
G01 X21.8817 Y39.2890
G01 X21.8776 Y39.2094
G00 Z2.0000
G00 X22.6546 Y40.8820
G01 F60.00
G01 Z0.0000
G01 F80.00
G01 X22.4879 Y40.9151
G01 X22.3310 Y40.9802
G01 X22.1897 Y41.0746
G01 X22.0696 Y41.1947
G01 X21.9752 Y41.3360
G01 X21.9101 Y41.4929
G01 X21.8770 Y41.6596
G01 X21.8770 Y41.8294
G01 X21.9101 Y41.9961
G01 X21.9752 Y42.1530
G01 X22.0696 Y42.2943
G01 X22.1897 Y42.4144
G01 X22.3310 Y42.5088
G01 X22.4879 Y42.5739
G01 X22.6545 Y42.6070
G01 X22.8245 Y42.6070
G01 X22.9911 Y42.5739
G01 X23.1480 Y42.5088
G01 X23.2893 Y42.4144
G01 X23.4094 Y42.2943
G01 X23.5038 Y42.1530
G01 X23.5689 Y41.9961
G01 X23.6020 Y41.8295
G01 X23.6020 Y41.6595
G01 X23.5689 Y41.4929
G01 X23.5038 Y41.3360
G01 X23.4094 Y41.1947
G01 X23.2893 Y41.0746
G01 X23.1480 Y40.9802
G01 X22.9911 Y40.9151
G01 X22.8245 Y40.8820
G01 X22.6546 Y40.8820
G00 Z2.0000
G00 X21.8776 Y41.7494
G01 F60.00
G01 Z0.0000
G01 F80.00
G01 X21.8776 Y41.7396
G01 X21.8817 Y41.6600
G01 X21.8941 Y41.5763
G01 X21.9146 Y41.4943
G01 X21.9431 Y41.4146
G01 X21.9793 Y41.3382
G01 X22.0228 Y41.2656
G01 X22.0732 Y41.1977
G01 X22.1300 Y41.1350
G01 X22.1927 Y41.0782
G01 X22.2606 Y41.0278
G01 X22.3332 Y40.9843
G01 X22.4096 Y40.9481
G01 X22.4893 Y40.9196
G01 X22.5713 Y40.8991
G01 X22.6550 Y40.8867
G01 X22.7395 Y40.8825
G01 X22.8240 Y40.8867
G01 X22.9077 Y40.8991
G01 X22.9897 Y40.9196
G01 X23.0694 Y40.9481
G01 X23.1458 Y40.9843
G01 X23.2184 Y41.0278
G01 X23.2863 Y41.0782
G01 X23.3490 Y41.1350
G01 X23.4058 Y41.1977
G01 X23.4562 Y41.2656
G01 X23.4997 Y41.3382
G01 X23.5359 Y41.4146
G01 X23.5644 Y41.4943
G01 X23.5849 Y41.5763
G01 X23.5973 Y41.6600
G01 X23.6015 Y41.7445
G01 X23.5973 Y41.8290
G01 X23.5849 Y41.9127
G01 X23.5644 Y41.9947
G01 X23.5359 Y42.0744
G01 X23.4997 Y42.1508
G01 X23.4562 Y42.2234
G01 X23.4058 Y42.2913
G01 X23.3490 Y42.3540
G01 X23.2863 Y42.4108
G01 X23.2184 Y42.4612
G01 X23.1458 Y42.5047
G01 X23.0694 Y42.5409
G01 X22.9897 Y42.5694
G01 X22.9077 Y42.5899
G01 X22.8240 Y42.6023
G01 X22.7395 Y42.6065
G01 X22.6550 Y42.6023
G01 X22.5713 Y42.5899
G01 X22.4893 Y42.5694
G01 X22.4096 Y42.5409
G01 X22.3332 Y42.5047
G01 X22.2606 Y42.4612
G01 X22.1927 Y42.4108
G01 X22.1300 Y42.3540
G01 X22.0732 Y42.2913
G01 X22.0228 Y42.2234
G01 X21.9793 Y42.1508
G01 X21.9431 Y42.0744
G01 X21.9146 Y41.9947
G01 X21.8941 Y41.9127
G01 X21.8817 Y41.8290
G01 X21.8776 Y41.7494
G00 Z2.0000
G00 X21.8776 Y44.2894
G01 F60.00
G01 Z0.0000
G01 F80.00
G01 X21.8776 Y44.2796
G01 X21.8817 Y44.2000
G01 X21.8941 Y44.1163
G01 X21.9146 Y44.0343
G01 X21.9431 Y43.9546
G01 X21.9793 Y43.8782
G01 X22.0228 Y43.8056
G01 X22.0732 Y43.7377
G01 X22.1300 Y43.6750
G01 X22.1927 Y43.6182
G01 X22.2606 Y43.5678
G01 X22.3332 Y43.5243
G01 X22.4096 Y43.4881
G01 X22.4893 Y43.4596
G01 X22.5713 Y43.4391
G01 X22.6550 Y43.4267
G01 X22.7395 Y43.4225
G01 X22.8240 Y43.4267
G01 X22.9077 Y43.4391
G01 X22.9897 Y43.4596
G01 X23.0694 Y43.4881
G01 X23.1458 Y43.5243
G01 X23.2184 Y43.5678
G01 X23.2863 Y43.6182
G01 X23.3490 Y43.6750
G01 X23.4058 Y43.7377
G01 X23.4562 Y43.8056
G01 X23.4997 Y43.8782
G01 X23.5359 Y43.9546
G01 X23.5644 Y44.0343
G01 X23.5849 Y44.1163
G01 X23.5973 Y44.2000
G01 X23.6015 Y44.2845
G01 X23.5973 Y44.3690
G01 X23.5849 Y44.4527
G01 X23.5644 Y44.5347
G01 X23.5359 Y44.6144
G01 X23.4997 Y44.6908
G01 X23.4562 Y44.7634
G01 X23.4058 Y44.8313
G01 X23.3490 Y44.8940
G01 X23.2863 Y44.9508
G01 X23.2184 Y45.0012
G01 X23.1458 Y45.0447
G01 X23.0694 Y45.0809
G01 X22.9897 Y45.1094
G01 X22.9077 Y45.1299
G01 X22.8240 Y45.1423
G01 X22.7395 Y45.1465
G01 X22.6550 Y45.1423
G01 X22.5713 Y45.1299
G01 X22.4893 Y45.1094
G01 X22.4096 Y45.0809
G01 X22.3332 Y45.0447
G01 X22.2606 Y45.0012
G01 X22.1927 Y44.9508
G01 X22.1300 Y44.8940
G01 X22.0732 Y44.8313
G01 X22.0228 Y44.7634
G01 X21.9793 Y44.6908
G01 X21.9431 Y44.6144
G01 X21.9146 Y44.5347
G01 X21.8941 Y44.4527
G01 X21.8817 Y44.3690
G01 X21.8776 Y44.2894
G00 Z2.0000
G00 X22.3310 Y45.0488
G01 F60.00
G01 Z0.0000
G01 F80.00
G01 X22.4879 Y45.1139
G01 X22.6545 Y45.1470
G01 X22.8245 Y45.1470
G01 X22.9911 Y45.1139
G01 X23.1480 Y45.0488
G01 X23.2893 Y44.9544
G01 X23.4094 Y44.8343
G01 X23.5038 Y44.6930
G01 X23.5689 Y44.5361
G01 X23.6020 Y44.3695
G01 X23.6020 Y44.1995
G01 X23.5689 Y44.0329
G01 X23.5038 Y43.8760
G01 X23.4094 Y43.7347
G01 X23.2893 Y43.6146
G01 X23.1480 Y43.5202
G01 X22.9911 Y43.4551
G01 X22.8245 Y43.4220
G01 X22.6546 Y43.4220
G01 X22.4879 Y43.4551
G01 X22.3310 Y43.5202
G01 X22.1897 Y43.6146
G01 X22.0696 Y43.7347
G01 X21.9752 Y43.8760
G01 X21.9101 Y44.0329
G01 X21.8770 Y44.1996
G01 X21.8770 Y44.3694
G01 X21.9101 Y44.5361
G01 X21.9752 Y44.6930
G01 X22.0696 Y44.8343
G01 X22.1897 Y44.9544
G01 X22.3310 Y45.0488
G00 Z2.0000
G00 X23.6020 Y46.7395
G01 F60.00
G01 Z0.0000
G01 F80.00
G01 X23.6003 Y46.7257
G01 X23.6003 Y46.7138
G01 X23.6070 Y46.6394
G01 X23.6081 Y46.6321
G01 X23.6104 Y46.6226
G01 X23.6146 Y46.6110
G01 X23.6178 Y46.6044
G01 X23.6214 Y46.5980
G01 X23.6519 Y46.5515
G01 X23.6565 Y46.5454
G01 X23.6616 Y46.5396
G01 X27.8100 Y42.3911
G01 X27.8693 Y42.2884
G01 X27.9000 Y42.1738
G01 X27.9000 Y35.3889
G01 X27.9007 Y35.3770
G01 X27.9028 Y35.3653
G01 X27.9245 Y35.2913
G01 X27.9270 Y35.2844
G01 X27.9311 Y35.2755
G01 X27.9347 Y35.2691
G01 X27.9403 Y35.2610
G01 X27.9602 Y35.2364
G01 X27.9656 Y35.2305
G01 X40.1739 Y23.0223
G01 X40.1813 Y23.0163
G01 X40.1912 Y23.0097
G01 X40.2546 Y22.9751
G01 X40.2634 Y22.9708
G01 X40.2726 Y22.9674
G01 X40.2846 Y22.9645
G01 X40.3235 Y22.9601
G01 X41.7094 Y22.9600
G01 X41.7387 Y22.9542
G01 X41.7720 Y22.9320
G01 X41.7942 Y22.8987
G01 X41.8000 Y22.8694
G01 X41.8000 Y20.8496
G01 X41.7942 Y20.8203
G01 X41.7720 Y20.7870
G01 X41.7387 Y20.7648
G01 X41.7094 Y20.7590
G01 X40.3241 Y20.7589
G01 X40.3123 Y20.7576
G01 X40.3030 Y20.7556
G01 X40.2313 Y20.7345
G01 X40.2244 Y20.7320
G01 X40.2177 Y20.7290
G01 X40.2091 Y20.7243
G01 X40.2030 Y20.7202
G01 X40.1785 Y20.7005
G01 X40.1705 Y20.6934
G01 X36.6146 Y17.1375
G01 X36.6067 Y17.1286
G01 X36.6025 Y17.1228
G01 X36.5987 Y17.1168
G01 X36.5641 Y17.0534
G01 X36.5608 Y17.0468
G01 X36.5580 Y17.0400
G01 X36.5551 Y17.0306
G01 X36.5531 Y17.0210
G01 X36.5496 Y16.9898
G01 X36.5490 Y16.9818
G01 X36.5490 Y13.5799
G01 X36.5493 Y13.5728
G01 X36.5504 Y13.5633
G01 X36.5531 Y13.5517
G01 X36.5727 Y13.4847
G01 X36.5751 Y13.4777
G01 X36.5779 Y13.4709
G01 X36.5825 Y13.4622
G01 X36.5878 Y13.4540
G01 X36.6075 Y13.4295
G01 X36.6146 Y13.4215
G01 X44.7205 Y5.3156
G01 X44.7257 Y5.3107
G01 X44.7313 Y5.3063
G01 X44.7412 Y5.2997
G01 X44.8046 Y5.2651
G01 X44.8112 Y5.2618
G01 X44.8180 Y5.2590
G01 X44.8274 Y5.2561
G01 X44.8370 Y5.2541
G01 X44.8682 Y5.2506
G01 X44.8789 Y5.2500
G01 X56.1701 Y5.2500
G01 X56.1820 Y5.2507
G01 X56.1914 Y5.2523
G01 X56.1983 Y5.2541
G01 X56.2653 Y5.2737
G01 X56.2769 Y5.2779
G01 X56.2857 Y5.2822
G01 X56.2960 Y5.2888
G01 X56.3205 Y5.3085
G01 X56.3266 Y5.3137
G01 X58.0334 Y7.0205
G01 X58.0398 Y7.0275
G01 X58.0455 Y7.0352
G01 X58.0504 Y7.0433
G01 X58.0839 Y7.1046
G01 X58.0891 Y7.1157
G01 X58.0929 Y7.1274
G01 X58.0949 Y7.1370
G01 X58.0984 Y7.1682
G01 X58.0990 Y7.1789
G01 X58.0990 Y20.2688
G01 X58.1297 Y20.3834
G01 X58.1890 Y20.4861
G01 X59.0351 Y21.3322
G01 X59.0427 Y21.3413
G01 X59.0493 Y21.3512
G01 X59.0839 Y21.4146
G01 X59.0891 Y21.4257
G01 X59.0923 Y21.4350
G01 X59.0949 Y21.4470
G01 X59.0984 Y21.4782
G01 X59.0990 Y21.4889
G01 X59.0990 Y22.8694
G01 X59.1048 Y22.8987
G01 X59.1270 Y22.9320
G01 X59.1603 Y22.9542
G01 X59.1896 Y22.9600
G01 X61.2094 Y22.9600
G01 X61.2387 Y22.9542
G01 X61.2720 Y22.9320
G01 X61.2942 Y22.8987
G01 X61.3000 Y22.8694
G01 X61.3000 Y20.8496
G01 X61.2942 Y20.8203
G01 X61.2720 Y20.7870
G01 X61.2387 Y20.7648
G01 X61.2094 Y20.7590
G01 X59.8265 Y20.7590
G01 X59.8147 Y20.7580
G01 X59.8030 Y20.7556
G01 X59.7267 Y20.7329
G01 X59.7155 Y20.7279
G01 X59.7050 Y20.7216
G01 X59.6785 Y20.7005
G01 X59.6705 Y20.6934
G01 X59.0639 Y20.0868
G01 X59.0563 Y20.0777
G01 X59.0497 Y20.0678
G01 X59.0151 Y20.0044
G01 X59.0099 Y19.9933
G01 X59.0061 Y19.9816
G01 X59.0041 Y19.9720
G01 X59.0006 Y19.9408
G01 X59.0000 Y19.9301
G01 X59.0000 Y15.1371
G01 X59.0007 Y15.1253
G01 X59.0018 Y15.1182
G01 X59.0034 Y15.1112
G01 X59.0253 Y15.0372
G01 X59.0301 Y15.0257
G01 X59.0362 Y15.0150
G01 X59.0437 Y15.0051
G01 X59.0523 Y14.9962
G01 X59.1070 Y14.9488
G01 X59.1128 Y14.9441
G01 X59.1211 Y14.9386
G01 X59.1321 Y14.9329
G01 X59.1414 Y14.9293
G01 X59.1534 Y14.9262
G01 X59.2323 Y14.9148
G01 X59.2448 Y14.9144
G01 X59.2522 Y14.9149
G01 X59.2596 Y14.9160
G01 X59.2716 Y14.9190
G01 X59.2832 Y14.9234
G01 X59.3490 Y14.9535
G01 X59.3576 Y14.9583
G01 X59.3638 Y14.9624
G01 X59.3715 Y14.9686
G01 X59.3824 Y14.9787
G01 X59.4826 Y15.0789
G01 X59.6227 Y15.1807
G01 X59.7771 Y15.2594
G01 X59.9418 Y15.3129
G01 X60.1129 Y15.3400
G01 X60.2861 Y15.3400
G01 X60.4572 Y15.3129
G01 X60.6219 Y15.2594
G01 X60.7763 Y15.1807
G01 X60.9164 Y15.0789
G01 X61.0389 Y14.9564
G01 X61.1407 Y14.8163
G01 X61.2194 Y14.6619
G01 X61.2729 Y14.4972
G01 X61.3000 Y14.3261
G01 X61.3000 Y14.1529
G01 X61.2729 Y13.9818
G01 X61.2690 Y13.9684
G01 X61.2671 Y13.9566
G01 X61.2646 Y13.8772
G01 X61.2654 Y13.8647
G01 X61.2677 Y13.8524
G01 X61.2714 Y13.8405
G01 X61.2767 Y13.8292
G01 X61.3114 Y13.7688
G01 X61.3182 Y13.7589
G01 X61.3262 Y13.7499
G01 X61.5000 Y13.5761
G01 X61.5593 Y13.4734
G01 X61.5900 Y13.3588
G01 X61.5900 Y13.0840
G01 X61.5907 Y13.0721
G01 X61.5918 Y13.0651
G01 X61.5934 Y13.0581
G01 X61.6145 Y12.9864
G01 X61.6170 Y12.9794
G01 X61.6201 Y12.9726
G01 X61.6262 Y12.9619
G01 X61.6337 Y12.9519
G01 X61.6423 Y12.9430
G01 X61.6989 Y12.8940
G01 X61.7049 Y12.8895
G01 X61.7112 Y12.8854
G01 X61.7223 Y12.8797
G01 X61.7292 Y12.8769
G01 X61.7364 Y12.8747
G01 X61.7951 Y12.8618
G01 X61.8045 Y12.8605
G01 X61.8140 Y12.8600
G01 X62.4244 Y12.8600
G01 X62.4537 Y12.8542
G01 X62.4870 Y12.8320
G01 X62.5092 Y12.7987
G01 X62.5150 Y12.7694
G01 X62.5150 Y10.2496
G01 X62.5092 Y10.2203
G01 X62.4870 Y10.1870
G01 X62.4537 Y10.1648
G01 X62.4244 Y10.1590
G01 X59.8546 Y10.1590
G01 X59.8253 Y10.1648
G01 X59.7920 Y10.1870
G01 X59.7698 Y10.2203
G01 X59.7640 Y10.2496
G01 X59.7640 Y12.7694
G01 X59.7698 Y12.7987
G01 X59.7920 Y12.8320
G01 X59.8046 Y12.8409
G01 X59.8117 Y12.8473
G01 X59.8166 Y12.8525
G01 X59.8645 Y12.9098
G01 X59.8716 Y12.9200
G01 X59.8774 Y12.9310
G01 X59.8818 Y12.9426
G01 X59.8847 Y12.9546
G01 X59.8941 Y13.0289
G01 X59.8948 Y13.0363
G01 X59.8948 Y13.0462
G01 X59.8942 Y13.0536
G01 X59.8924 Y13.0634
G01 X59.8898 Y13.0730
G01 X59.8862 Y13.0822
G01 X59.8527 Y13.1519
G01 X59.8476 Y13.1604
G01 X59.8417 Y13.1683
G01 X59.8350 Y13.1755
G01 X59.8276 Y13.1821
G01 X59.7876 Y13.2128
G01 X59.7788 Y13.2186
G01 X59.6227 Y13.2983
G01 X59.4826 Y13.4001
G01 X59.3824 Y13.5003
G01 X59.3735 Y13.5082
G01 X59.3677 Y13.5124
G01 X59.3617 Y13.5162
G01 X59.2961 Y13.5520
G01 X59.2847 Y13.5570
G01 X59.2752 Y13.5599
G01 X59.2655 Y13.5619
G01 X59.2532 Y13.5630
G01 X59.2432 Y13.5628
G01 X59.1711 Y13.5576
G01 X59.1637 Y13.5566
G01 X59.1540 Y13.5544
G01 X59.1469 Y13.5522
G01 X59.1400 Y13.5494
G01 X59.1333 Y13.5461
G01 X59.1248 Y13.5410
G01 X59.0628 Y13.4947
G01 X59.0572 Y13.4899
G01 X59.0519 Y13.4847
G01 X59.0470 Y13.4791
G01 X59.0411 Y13.4710
G01 X59.0373 Y13.4647
G01 X59.0339 Y13.4580
G01 X59.0310 Y13.4511
G01 X59.0066 Y13.3857
G01 X59.0036 Y13.3762
G01 X59.0016 Y13.3666
G01 X59.0005 Y13.3568
G01 X59.0000 Y13.3419
G01 X59.0000 Y6.8402
G01 X58.9693 Y6.7256
G01 X58.9100 Y6.6229
G01 X57.9195 Y5.6324
G01 X57.9131 Y5.6253
G01 X57.9074 Y5.6177
G01 X57.9024 Y5.6096
G01 X57.8678 Y5.5461
G01 X57.8628 Y5.5347
G01 X57.8593 Y5.5228
G01 X57.8572 Y5.5106
G01 X57.8567 Y5.4982
G01 X57.8622 Y5.4211
G01 X57.8641 Y5.4088
G01 X57.8668 Y5.3992
G01 X57.8704 Y5.3900
G01 X57.8761 Y5.3790
G01 X57.8817 Y5.3707
G01 X57.9235 Y5.3148
G01 X57.9299 Y5.3072
G01 X57.9351 Y5.3019
G01 X57.9407 Y5.2970
G01 X57.9467 Y5.2925
G01 X57.9551 Y5.2873
G01 X57.9618 Y5.2839
G01 X57.9686 Y5.2810
G01 X58.0341 Y5.2566
G01 X58.0435 Y5.2536
G01 X58.0532 Y5.2516
G01 X58.0630 Y5.2505
G01 X58.0779 Y5.2500
G01 X75.1701 Y5.2500
G01 X75.1772 Y5.2503
G01 X75.1867 Y5.2514
G01 X75.1960 Y5.2534
G01 X75.2653 Y5.2737
G01 X75.2769 Y5.2779
G01 X75.2878 Y5.2835
G01 X75.2960 Y5.2888
G01 X75.3205 Y5.3085
G01 X75.3266 Y5.3137
G01 X76.6334 Y6.6205
G01 X76.6383 Y6.6257
G01 X76.6427 Y6.6313
G01 X76.6468 Y6.6371
G01 X76.6504 Y6.6433
G01 X76.6839 Y6.7046
G01 X76.6891 Y6.7157
G01 X76.6923 Y6.7250
G01 X76.6949 Y6.7370
G01 X76.6989 Y6.7735
G01 X76.6990 Y7.4699
G01 X76.6987 Y7.4770
G01 X76.6976 Y7.4865
G01 X76.6956 Y7.4958
G01 X76.6745 Y7.5675
G01 X76.6720 Y7.5745
G01 X76.6689 Y7.5813
G01 X76.6654 Y7.5878
G01 X76.6614 Y7.5941
G01 X76.6553 Y7.6019
G01 X76.6467 Y7.6108
G01 X76.5901 Y7.6599
G01 X76.5821 Y7.6658
G01 X76.5758 Y7.6697
G01 X76.5669 Y7.6741
G01 X76.5600 Y7.6769
G01 X76.5505 Y7.6798
G01 X76.5432 Y7.6813
G01 X76.4692 Y7.6919
G01 X76.4619 Y7.6925
G01 X76.4547 Y7.6926
G01 X76.4450 Y7.6919
G01 X76.4378 Y7.6907
G01 X76.4308 Y7.6890
G01 X76.4216 Y7.6860
G01 X76.3703 Y7.6664
G01 X76.3613 Y7.6624
G01 X76.3505 Y7.6561
G01 X76.3037 Y7.6248
G01 X76.2744 Y7.6190
G01 X73.7046 Y7.6190
G01 X73.6753 Y7.6248
G01 X73.6420 Y7.6470
G01 X73.6198 Y7.6803
G01 X73.6140 Y7.7096
G01 X73.6140 Y10.2294
G01 X73.6198 Y10.2587
G01 X73.6420 Y10.2920
G01 X73.6753 Y10.3142
G01 X73.7046 Y10.3200
G01 X74.6750 Y10.3200
G01 X74.6821 Y10.3203
G01 X74.6916 Y10.3214
G01 X74.7032 Y10.3241
G01 X74.7749 Y10.3453
G01 X74.7819 Y10.3480
G01 X74.7908 Y10.3524
G01 X74.7971 Y10.3562
G01 X74.8032 Y10.3606
G01 X74.8107 Y10.3670
G01 X74.8160 Y10.3723
G01 X74.8634 Y10.4270
G01 X74.8681 Y10.4328
G01 X74.8749 Y10.4433
G01 X74.8793 Y10.4523
G01 X74.8829 Y10.4616
G01 X74.8855 Y10.4712
G01 X74.8972 Y10.5251
G01 X74.8985 Y10.5345
G01 X74.8990 Y10.5440
G01 X74.8990 Y13.2120
G01 X74.8987 Y13.2192
G01 X74.8980 Y13.2263
G01 X74.8967 Y13.2333
G01 X74.8949 Y13.2402
G01 X74.8745 Y13.3096
G01 X74.8700 Y13.3212
G01 X74.8641 Y13.3321
G01 X74.8569 Y13.3422
G01 X74.8485 Y13.3513
G01 X74.7901 Y13.4020
G01 X74.7801 Y13.4093
G01 X74.7714 Y13.4142
G01 X74.7600 Y13.4190
G01 X74.7481 Y13.4225
G01 X74.7407 Y13.4238
G01 X74.6691 Y13.4341
G01 X74.6592 Y13.4347
G01 X74.6493 Y13.4344
G01 X74.6419 Y13.4336
G01 X74.6346 Y13.4321
G01 X74.6250 Y13.4294
G01 X74.6181 Y13.4267
G01 X74.5500 Y13.3956
G01 X74.5435 Y13.3922
G01 X74.5372 Y13.3882
G01 X74.5294 Y13.3822
G01 X74.5166 Y13.3704
G01 X74.4319 Y13.2857
G01 X74.3043 Y13.1930
G01 X74.1639 Y13.1215
G01 X74.0140 Y13.0728
G01 X73.8583 Y13.0481
G01 X73.7007 Y13.0481
G01 X73.5450 Y13.0728
G01 X73.3951 Y13.1215
G01 X73.2547 Y13.1930
G01 X73.1271 Y13.2857
G01 X73.0157 Y13.3971
G01 X72.9230 Y13.5247
G01 X72.8515 Y13.6651
G01 X72.8028 Y13.8150
G01 X72.7781 Y13.9707
G01 X72.7781 Y14.1283
G01 X72.8028 Y14.2840
G01 X72.8515 Y14.4339
G01 X72.9230 Y14.5743
G01 X73.0157 Y14.7019
G01 X73.1271 Y14.8133
G01 X73.2547 Y14.9060
G01 X73.3951 Y14.9775
G01 X73.5450 Y15.0262
G01 X73.7007 Y15.0509
G01 X73.8583 Y15.0509
G01 X74.0140 Y15.0262
G01 X74.1639 Y14.9775
G01 X74.3043 Y14.9060
G01 X74.4319 Y14.8133
G01 X74.5166 Y14.7286
G01 X74.5218 Y14.7237
G01 X74.5293 Y14.7178
G01 X74.5394 Y14.7115
G01 X74.6007 Y14.6780
G01 X74.6074 Y14.6747
G01 X74.6166 Y14.6711
G01 X74.6262 Y14.6684
G01 X74.6359 Y14.6666
G01 X74.6434 Y14.6660
G01 X74.6558 Y14.6661
G01 X74.7279 Y14.6713
G01 X74.7402 Y14.6732
G01 X74.7521 Y14.6767
G01 X74.7635 Y14.6816
G01 X74.7742 Y14.6879
G01 X74.8342 Y14.7326
G01 X74.8400 Y14.7373
G01 X74.8471 Y14.7442
G01 X74.8551 Y14.7537
G01 X74.8617 Y14.7642
G01 X74.8671 Y14.7754
G01 X74.8924 Y14.8432
G01 X74.8947 Y14.8502
G01 X74.8965 Y14.8574
G01 X74.8978 Y14.8647
G01 X74.8985 Y14.8721
G01 X74.8989 Y14.8834
G01 X74.8990 Y26.3950
G01 X74.8985 Y26.4045
G01 X74.8972 Y26.4139
G01 X74.8956 Y26.4209
G01 X74.8753 Y26.4902
G01 X74.8729 Y26.4973
G01 X74.8689 Y26.5064
G01 X74.8641 Y26.5151
G01 X74.8584 Y26.5232
G01 X74.8520 Y26.5307
G01 X74.8448 Y26.5376
G01 X74.7901 Y26.5850
G01 X74.7841 Y26.5895
G01 X74.7757 Y26.5949
G01 X74.7644 Y26.6003
G01 X74.7526 Y26.6043
G01 X74.6963 Y26.6167
G01 X74.6869 Y26.6183
G01 X74.6750 Y26.6190
G01 X73.7046 Y26.6190
G01 X73.6753 Y26.6248
G01 X73.6420 Y26.6470
G01 X73.6198 Y26.6803
G01 X73.6140 Y26.7096
G01 X73.6140 Y29.2294
G01 X73.6198 Y29.2587
G01 X73.6420 Y29.2920
G01 X73.6753 Y29.3142
G01 X73.7046 Y29.3200
G01 X74.7750 Y29.3200
G01 X74.7845 Y29.3205
G01 X74.7916 Y29.3214
G01 X74.8032 Y29.3241
G01 X74.8749 Y29.3453
G01 X74.8819 Y29.3480
G01 X74.8886 Y29.3512
G01 X74.8992 Y29.3576
G01 X74.9089 Y29.3653
G01 X74.9160 Y29.3723
G01 X74.9634 Y29.4270
G01 X74.9681 Y29.4328
G01 X74.9723 Y29.4390
G01 X74.9761 Y29.4455
G01 X74.9793 Y29.4523
G01 X74.9829 Y29.4616
G01 X74.9849 Y29.4688
G01 X74.9967 Y29.5227
G01 X74.9983 Y29.5321
G01 X74.9990 Y29.5440
G01 X74.9990 Y32.3349
G01 X74.9983 Y32.3468
G01 X74.9972 Y32.3538
G01 X74.9956 Y32.3608
G01 X74.9745 Y32.4325
G01 X74.9700 Y32.4441
G01 X74.9654 Y32.4528
G01 X74.9614 Y32.4591
G01 X74.9569 Y32.4651
G01 X74.9485 Y32.4742
G01 X74.8901 Y32.5249
G01 X74.8801 Y32.5322
G01 X74.8692 Y32.5381
G01 X74.8576 Y32.5427
G01 X74.8456 Y32.5459
G01 X74.7667 Y32.5572
G01 X74.7592 Y32.5576
G01 X74.7518 Y32.5575
G01 X74.7394 Y32.5560
G01 X74.7298 Y32.5538
G01 X74.7181 Y32.5496
G01 X74.6523 Y32.5196
G01 X74.6456 Y32.5162
G01 X74.6391 Y32.5124
G01 X74.6330 Y32.5080
G01 X74.6272 Y32.5033
G01 X74.6201 Y32.4962
G01 X74.5966 Y32.4702
G01 X74.5433 Y32.3971
G01 X74.4319 Y32.2857
G01 X74.3043 Y32.1930
G01 X74.1639 Y32.1215
G01 X74.0140 Y32.0728
G01 X73.8583 Y32.0481
G01 X73.7007 Y32.0481
G01 X73.5450 Y32.0728
G01 X73.3951 Y32.1215
G01 X73.2547 Y32.1930
G01 X73.1271 Y32.2857
G01 X73.0157 Y32.3971
G01 X72.9230 Y32.5247
G01 X72.8515 Y32.6651
G01 X72.8028 Y32.8150
G01 X72.7781 Y32.9707
G01 X72.7781 Y33.1283
G01 X72.8028 Y33.2840
G01 X72.8515 Y33.4339
G01 X72.9230 Y33.5743
G01 X73.0157 Y33.7019
G01 X73.1271 Y33.8133
G01 X73.2547 Y33.9060
G01 X73.3951 Y33.9775
G01 X73.5450 Y34.0262
G01 X73.7007 Y34.0509
G01 X73.8583 Y34.0509
G01 X74.0140 Y34.0262
G01 X74.1639 Y33.9775
G01 X74.3043 Y33.9060
G01 X74.4319 Y33.8133
G01 X74.5433 Y33.7019
G01 X74.5952 Y33.6305
G01 X74.6030 Y33.6215
G01 X74.6099 Y33.6150
G01 X74.6689 Y33.5693
G01 X74.6771 Y33.5637
G01 X74.6858 Y33.5589
G01 X74.6972 Y33.5541
G01 X74.7068 Y33.5513
G01 X74.7165 Y33.5495
G01 X74.7960 Y33.5426
G01 X74.8084 Y33.5429
G01 X74.8207 Y33.5448
G01 X74.8326 Y33.5482
G01 X74.8441 Y33.5530
G01 X74.9081 Y33.5867
G01 X74.9145 Y33.5904
G01 X74.9207 Y33.5946
G01 X74.9265 Y33.5993
G01 X74.9337 Y33.6061
G01 X74.9387 Y33.6117
G01 X74.9446 Y33.6196
G01 X74.9485 Y33.6260
G01 X74.9829 Y33.6868
G01 X74.9863 Y33.6935
G01 X74.9909 Y33.7051
G01 X74.9940 Y33.7172
G01 X74.9951 Y33.7246
G01 X74.9989 Y33.7595
G01 X74.9990 Y45.4450
G01 X74.9985 Y45.4545
G01 X74.9972 Y45.4639
G01 X74.9956 Y45.4709
G01 X74.9753 Y45.5402
G01 X74.9729 Y45.5473
G01 X74.9689 Y45.5564
G01 X74.9641 Y45.5651
G01 X74.9584 Y45.5732
G01 X74.9520 Y45.5807
G01 X74.9448 Y45.5876
G01 X74.8901 Y45.6350
G01 X74.8821 Y45.6409
G01 X74.8735 Y45.6461
G01 X74.8644 Y45.6503
G01 X74.8526 Y45.6543
G01 X74.7939 Y45.6672
G01 X74.7845 Y45.6685
G01 X74.7750 Y45.6690
G01 X73.7046 Y45.6690
G01 X73.6753 Y45.6748
G01 X73.6420 Y45.6970
G01 X73.6198 Y45.7303
G01 X73.6140 Y45.7596
G01 X73.6140 Y48.2794
G01 X73.6198 Y48.3087
G01 X73.6420 Y48.3420
G01 X73.6753 Y48.3642
G01 X73.7046 Y48.3700
G01 X76.2511 Y48.3700
G01 X76.2606 Y48.3705
G01 X76.2700 Y48.3718
G01 X76.2770 Y48.3734
G01 X76.2902 Y48.3773
G01 X76.3041 Y48.3783
G01 X76.3139 Y48.3797
G01 X76.3235 Y48.3821
G01 X76.3351 Y48.3865
G01 X76.3440 Y48.3910
G01 X76.3507 Y48.3951
G01 X76.3580 Y48.3980
G01 X76.3647 Y48.4012
G01 X76.3733 Y48.4062
G01 X76.3793 Y48.4106
G01 X76.3850 Y48.4153
G01 X76.3921 Y48.4223
G01 X76.4012 Y48.4328
G01 X76.4161 Y48.4443
G01 X76.4215 Y48.4494
G01 X76.4266 Y48.4549
G01 X76.4326 Y48.4628
G01 X76.4366 Y48.4691
G01 X76.4424 Y48.4805
G01 X76.4470 Y48.4869
G01 X76.4509 Y48.4932
G01 X76.4564 Y48.5044
G01 X76.4589 Y48.5113
G01 X76.4616 Y48.5209
G01 X76.4645 Y48.5395
G01 X76.4708 Y48.5573
G01 X76.4726 Y48.5645
G01 X76.4739 Y48.5718
G01 X76.4746 Y48.5793
G01 X76.4747 Y48.5892
G01 X76.4734 Y48.6019
G01 X76.4738 Y48.6098
G01 X76.4737 Y48.6172
G01 X76.4722 Y48.6296
G01 X76.4706 Y48.6368
G01 X76.4677 Y48.6463
G01 X76.4601 Y48.6636
G01 X76.4558 Y48.6820
G01 X76.4533 Y48.6892
G01 X76.4504 Y48.6961
G01 X76.4469 Y48.7028
G01 X76.4429 Y48.7092
G01 X76.4323 Y48.7236
G01 X76.4258 Y48.7338
G01 X76.4213 Y48.7397
G01 X76.4095 Y48.7524
G01 X76.3785 Y48.7834
G01 X76.3733 Y48.7883
G01 X76.3677 Y48.7927
G01 X76.3578 Y48.7993
G01 X76.2944 Y48.8339
G01 X76.2878 Y48.8372
G01 X76.2810 Y48.8400
G01 X76.2716 Y48.8429
G01 X76.2620 Y48.8449
G01 X76.2308 Y48.8484
G01 X76.2201 Y48.8490
G01 X72.2077 Y48.8490
G01 X72.1958 Y48.8483
G01 X72.1841 Y48.8462
G01 X72.1125 Y48.8253
G01 X72.1054 Y48.8229
G01 X72.0985 Y48.8200
G01 X72.0919 Y48.8166
G01 X72.0855 Y48.8128
G01 X72.0756 Y48.8053
G01 X72.0667 Y48.7967
G01 X72.0193 Y48.7420
G01 X72.0147 Y48.7362
G01 X72.0079 Y48.7258
G01 X72.0034 Y48.7169
G01 X71.9991 Y48.7053
G01 X71.9963 Y48.6932
G01 X71.9854 Y48.6167
G01 X71.9850 Y48.6042
G01 X71.9862 Y48.5919
G01 X71.9888 Y48.5798
G01 X71.9930 Y48.5681
G01 X72.0230 Y48.5023
G01 X72.0276 Y48.4933
G01 X72.0346 Y48.4829
G01 X72.0395 Y48.4771
G01 X72.0447 Y48.4717
G01 X72.0503 Y48.4667
G01 X72.0858 Y48.4376
G01 X72.0957 Y48.4310
G01 X72.1584 Y48.3948
G01 X72.3301 Y48.2631
G01 X72.4831 Y48.1101
G01 X72.6148 Y47.9384
G01 X72.7230 Y47.7511
G01 X72.8058 Y47.5512
G01 X72.8618 Y47.3422
G01 X72.8900 Y47.1277
G01 X72.8900 Y46.9113
G01 X72.8618 Y46.6968
G01 X72.8058 Y46.4878
G01 X72.7230 Y46.2879
G01 X72.6148 Y46.1006
G01 X72.4831 Y45.9289
G01 X72.3301 Y45.7759
G01 X72.1584 Y45.6442
G01 X71.9711 Y45.5360
G01 X71.7712 Y45.4532
G01 X71.5622 Y45.3972
G01 X71.3477 Y45.3690
G01 X71.1313 Y45.3690
G01 X70.9168 Y45.3972
G01 X70.7078 Y45.4532
G01 X70.5079 Y45.5360
G01 X70.3206 Y45.6442
G01 X70.1489 Y45.7759
G01 X69.9959 Y45.9289
G01 X69.8642 Y46.1006
G01 X69.7560 Y46.2879
G01 X69.6732 Y46.4878
G01 X69.6172 Y46.6968
G01 X69.5890 Y46.9113
G01 X69.5890 Y47.1277
G01 X69.6172 Y47.3422
G01 X69.6732 Y47.5512
G01 X69.7560 Y47.7511
G01 X69.8642 Y47.9384
G01 X69.9959 Y48.1101
G01 X70.1489 Y48.2631
G01 X70.3206 Y48.3948
G01 X70.3833 Y48.4310
G01 X70.3894 Y48.4348
G01 X70.3951 Y48.4390
G01 X70.4040 Y48.4469
G01 X70.4539 Y48.4992
G01 X70.4588 Y48.5048
G01 X70.4647 Y48.5127
G01 X70.4698 Y48.5213
G01 X70.4731 Y48.5280
G01 X70.4766 Y48.5372
G01 X70.4787 Y48.5444
G01 X70.4934 Y48.6203
G01 X70.4945 Y48.6302
G01 X70.4947 Y48.6401
G01 X70.4942 Y48.6475
G01 X70.4931 Y48.6549
G01 X70.4915 Y48.6622
G01 X70.4893 Y48.6693
G01 X70.4616 Y48.7388
G01 X70.4586 Y48.7456
G01 X70.4551 Y48.7522
G01 X70.4511 Y48.7585
G01 X70.4450 Y48.7664
G01 X70.4400 Y48.7718
G01 X70.4327 Y48.7786
G01 X70.4268 Y48.7831
G01 X70.3699 Y48.8236
G01 X70.3592 Y48.8303
G01 X70.3478 Y48.8355
G01 X70.3407 Y48.8379
G01 X70.3334 Y48.8398
G01 X70.2879 Y48.8476
G01 X70.2761 Y48.8489
G01 X69.2265 Y48.8490
G01 X69.2194 Y48.8485
G01 X69.2123 Y48.8476
G01 X69.2007 Y48.8449
G01 X69.1313 Y48.8245
G01 X69.1199 Y48.8201
G01 X69.1112 Y48.8155
G01 X69.1050 Y48.8116
G01 X69.0991 Y48.8072
G01 X69.0764 Y48.7888
G01 X69.0705 Y48.7834
G01 X60.7261 Y40.4390
G01 X60.6620 Y40.4020
G01 X60.6559 Y40.3982
G01 X60.6502 Y40.3940
G01 X60.6413 Y40.3861
G01 X60.5914 Y40.3338
G01 X60.5834 Y40.3243
G01 X60.5779 Y40.3160
G01 X60.5732 Y40.3072
G01 X60.5694 Y40.2980
G01 X60.5666 Y40.2884
G01 X60.5528 Y40.2316
G01 X60.5510 Y40.2222
G01 X60.5503 Y40.2151
G01 X60.5500 Y40.2080
G01 X60.5500 Y39.7896
G01 X60.5442 Y39.7603
G01 X60.5220 Y39.7270
G01 X60.4887 Y39.7048
G01 X60.4594 Y39.6990
G01 X58.4396 Y39.6990
G01 X58.4103 Y39.7048
G01 X58.3770 Y39.7270
G01 X58.3548 Y39.7603
G01 X58.3490 Y39.7896
G01 X58.3490 Y41.8094
G01 X58.3548 Y41.8387
G01 X58.3770 Y41.8720
G01 X58.4103 Y41.8942
G01 X58.4396 Y41.9000
G01 X58.7821 Y41.9003
G01 X58.7916 Y41.9014
G01 X58.8009 Y41.9034
G01 X58.8702 Y41.9237
G01 X58.8819 Y41.9280
G01 X58.8908 Y41.9324
G01 X58.8992 Y41.9376
G01 X58.9071 Y41.9437
G01 X58.9125 Y41.9488
G01 X58.9176 Y41.9542
G01 X58.9634 Y42.0070
G01 X58.9681 Y42.0128
G01 X58.9723 Y42.0190
G01 X58.9761 Y42.0255
G01 X58.9793 Y42.0323
G01 X58.9821 Y42.0392
G01 X58.9843 Y42.0464
G01 X58.9967 Y42.1027
G01 X58.9985 Y42.1145
G01 X58.9990 Y42.1240
G01 X58.9990 Y46.7701
G01 X58.9983 Y46.7820
G01 X58.9972 Y46.7890
G01 X58.9949 Y46.7983
G01 X58.9753 Y46.8653
G01 X58.9711 Y46.8769
G01 X58.9655 Y46.8878
G01 X58.9602 Y46.8960
G01 X58.9406 Y46.9205
G01 X58.9353 Y46.9266
G01 X57.7474 Y48.1145
G01 X57.7403 Y48.1209
G01 X57.7327 Y48.1266
G01 X57.7267 Y48.1304
G01 X57.6611 Y48.1662
G01 X57.6497 Y48.1712
G01 X57.6378 Y48.1747
G01 X57.6256 Y48.1768
G01 X57.6132 Y48.1773
G01 X57.5385 Y48.1720
G01 X57.5311 Y48.1712
G01 X57.5190 Y48.1687
G01 X57.5073 Y48.1646
G01 X57.4961 Y48.1592
G01 X57.4857 Y48.1524
G01 X57.4298 Y48.1105
G01 X57.4222 Y48.1041
G01 X57.4152 Y48.0971
G01 X57.4089 Y48.0894
G01 X57.4035 Y48.0811
G01 X57.3989 Y48.0722
G01 X57.3960 Y48.0654
G01 X57.3693 Y47.9929
G01 X57.3675 Y47.9857
G01 X57.3659 Y47.9759
G01 X57.3650 Y47.9561
G01 X57.3650 Y45.7096
G01 X57.3592 Y45.6803
G01 X57.3370 Y45.6470
G01 X57.3037 Y45.6248
G01 X57.2744 Y45.6190
G01 X57.2192 Y45.6189
G01 X57.2098 Y45.6180
G01 X57.2004 Y45.6162
G01 X57.1288 Y45.5953
G01 X57.1217 Y45.5929
G01 X57.1149 Y45.5900
G01 X57.1061 Y45.5854
G01 X57.0998 Y45.5814
G01 X57.0919 Y45.5753
G01 X57.0865 Y45.5702
G01 X57.0814 Y45.5648
G01 X57.0340 Y45.5101
G01 X57.0281 Y45.5021
G01 X57.0218 Y45.4913
G01 X57.0169 Y45.4798
G01 X57.0135 Y45.4678
G01 X57.0018 Y45.4139
G01 X57.0005 Y45.4045
G01 X57.0000 Y45.3950
G01 X57.0000 Y29.5416
G01 X57.0005 Y29.5345
G01 X57.0014 Y29.5274
G01 X57.0041 Y29.5158
G01 X57.0245 Y29.4464
G01 X57.0280 Y29.4371
G01 X57.0336 Y29.4261
G01 X57.0406 Y29.4158
G01 X57.0453 Y29.4101
G01 X57.0505 Y29.4047
G01 X57.1070 Y29.3556
G01 X57.1128 Y29.3509
G01 X57.1212 Y29.3454
G01 X57.1300 Y29.3407
G01 X57.1392 Y29.3369
G01 X57.1512 Y29.3335
G01 X57.2027 Y29.3223
G01 X57.2121 Y29.3207
G01 X57.2216 Y29.3200
G01 X57.2744 Y29.3200
G01 X57.3037 Y29.3142
G01 X57.3370 Y29.2920
G01 X57.3592 Y29.2587
G01 X57.3650 Y29.2294
G01 X57.3650 Y26.7096
G01 X57.3592 Y26.6803
G01 X57.3370 Y26.6470
G01 X57.3037 Y26.6248
G01 X57.2744 Y26.6190
G01 X57.0240 Y26.6190
G01 X57.0145 Y26.6185
G01 X57.0074 Y26.6176
G01 X56.9981 Y26.6156
G01 X56.9288 Y26.5953
G01 X56.9194 Y26.5920
G01 X56.9082 Y26.5866
G01 X56.8998 Y26.5814
G01 X56.8939 Y26.5769
G01 X56.8883 Y26.5720
G01 X56.8830 Y26.5667
G01 X56.8340 Y26.5101
G01 X56.8281 Y26.5021
G01 X56.8241 Y26.4957
G01 X56.8207 Y26.4890
G01 X56.8178 Y26.4821
G01 X56.8141 Y26.4702
G01 X56.8018 Y26.4139
G01 X56.8005 Y26.4045
G01 X56.8000 Y26.3950
G01 X56.8000 Y10.5416
G01 X56.8010 Y10.5298
G01 X56.8034 Y10.5181
G01 X56.8237 Y10.4488
G01 X56.8280 Y10.4371
G01 X56.8312 Y10.4304
G01 X56.8349 Y10.4239
G01 X56.8421 Y10.4139
G01 X56.8470 Y10.4083
G01 X56.8523 Y10.4030
G01 X56.9089 Y10.3540
G01 X56.9169 Y10.3481
G01 X56.9233 Y10.3441
G01 X56.9346 Y10.3387
G01 X56.9416 Y10.3361
G01 X56.9488 Y10.3341
G01 X57.0051 Y10.3218
G01 X57.0169 Y10.3203
G01 X57.2744 Y10.3200
G01 X57.3037 Y10.3142
G01 X57.3370 Y10.2920
G01 X57.3592 Y10.2587
G01 X57.3650 Y10.2294
G01 X57.3650 Y7.7096
G01 X57.3592 Y7.6803
G01 X57.3370 Y7.6470
G01 X57.3037 Y7.6248
G01 X57.2744 Y7.6190
G01 X54.7046 Y7.6190
G01 X54.6753 Y7.6248
G01 X54.6420 Y7.6470
G01 X54.6198 Y7.6803
G01 X54.6140 Y7.7096
G01 X54.6140 Y10.2294
G01 X54.6198 Y10.2587
G01 X54.6420 Y10.2920
G01 X54.6753 Y10.3142
G01 X54.7046 Y10.3200
G01 X55.6750 Y10.3200
G01 X55.6821 Y10.3203
G01 X55.6916 Y10.3214
G01 X55.7032 Y10.3241
G01 X55.7749 Y10.3453
G01 X55.7819 Y10.3480
G01 X55.7908 Y10.3524
G01 X55.7971 Y10.3562
G01 X55.8032 Y10.3606
G01 X55.8107 Y10.3670
G01 X55.8160 Y10.3723
G01 X55.8634 Y10.4270
G01 X55.8681 Y10.4328
G01 X55.8736 Y10.4412
G01 X55.8793 Y10.4523
G01 X55.8829 Y10.4616
G01 X55.8855 Y10.4712
G01 X55.8972 Y10.5251
G01 X55.8985 Y10.5345
G01 X55.8990 Y10.5440
G01 X55.8990 Y13.2120
G01 X55.8987 Y13.2192
G01 X55.8980 Y13.2263
G01 X55.8967 Y13.2333
G01 X55.8949 Y13.2402
G01 X55.8745 Y13.3096
G01 X55.8700 Y13.3212
G01 X55.8641 Y13.3321
G01 X55.8569 Y13.3422
G01 X55.8485 Y13.3513
G01 X55.7901 Y13.4020
G01 X55.7801 Y13.4093
G01 X55.7692 Y13.4153
G01 X55.7576 Y13.4198
G01 X55.7481 Y13.4225
G01 X55.7407 Y13.4238
G01 X55.6691 Y13.4341
G01 X55.6592 Y13.4347
G01 X55.6493 Y13.4344
G01 X55.6419 Y13.4336
G01 X55.6322 Y13.4315
G01 X55.6250 Y13.4294
G01 X55.6181 Y13.4267
G01 X55.5500 Y13.3956
G01 X55.5435 Y13.3922
G01 X55.5372 Y13.3882
G01 X55.5294 Y13.3822
G01 X55.5166 Y13.3704
G01 X55.4319 Y13.2857
G01 X55.3043 Y13.1930
G01 X55.1639 Y13.1215
G01 X55.0140 Y13.0728
G01 X54.8583 Y13.0481
G01 X54.7007 Y13.0481
G01 X54.5450 Y13.0728
G01 X54.3951 Y13.1215
G01 X54.2547 Y13.1930
G01 X54.1271 Y13.2857
G01 X54.0157 Y13.3971
G01 X53.9230 Y13.5247
G01 X53.8515 Y13.6651
G01 X53.8028 Y13.8150
G01 X53.7781 Y13.9707
G01 X53.7781 Y14.1283
G01 X53.8028 Y14.2840
G01 X53.8515 Y14.4339
G01 X53.9230 Y14.5743
G01 X54.0157 Y14.7019
G01 X54.1271 Y14.8133
G01 X54.2547 Y14.9060
G01 X54.3951 Y14.9775
G01 X54.5450 Y15.0262
G01 X54.7007 Y15.0509
G01 X54.8583 Y15.0509
G01 X55.0140 Y15.0262
G01 X55.1639 Y14.9775
G01 X55.3043 Y14.9060
G01 X55.4319 Y14.8133
G01 X55.5166 Y14.7286
G01 X55.5236 Y14.7222
G01 X55.5293 Y14.7178
G01 X55.5394 Y14.7115
G01 X55.6007 Y14.6780
G01 X55.6074 Y14.6747
G01 X55.6166 Y14.6711
G01 X55.6238 Y14.6690
G01 X55.6310 Y14.6674
G01 X55.6409 Y14.6661
G01 X55.6483 Y14.6658
G01 X55.6558 Y14.6661
G01 X55.7279 Y14.6713
G01 X55.7402 Y14.6732
G01 X55.7498 Y14.6759
G01 X55.7567 Y14.6785
G01 X55.7635 Y14.6816
G01 X55.7742 Y14.6879
G01 X55.8342 Y14.7326
G01 X55.8436 Y14.7407
G01 X55.8520 Y14.7498
G01 X55.8579 Y14.7578
G01 X55.8640 Y14.7686
G01 X55.8680 Y14.7777
G01 X55.8932 Y14.8455
G01 X55.8960 Y14.8550
G01 X55.8974 Y14.8623
G01 X55.8985 Y14.8721
G01 X55.8990 Y14.8870
G01 X55.8990 Y26.3950
G01 X55.8983 Y26.4069
G01 X55.8962 Y26.4186
G01 X55.8745 Y26.4926
G01 X55.8710 Y26.5019
G01 X55.8666 Y26.5108
G01 X55.8614 Y26.5192
G01 X55.8553 Y26.5271
G01 X55.8502 Y26.5325
G01 X55.8448 Y26.5376
G01 X55.7901 Y26.5850
G01 X55.7821 Y26.5909
G01 X55.7735 Y26.5961
G01 X55.7621 Y26.6012
G01 X55.7502 Y26.6049
G01 X55.6939 Y26.6172
G01 X55.6821 Y26.6187
G01 X55.3689 Y26.6190
G01 X55.3594 Y26.6185
G01 X55.3523 Y26.6176
G01 X55.3430 Y26.6156
G01 X55.2690 Y26.5938
G01 X55.2599 Y26.5901
G01 X55.2533 Y26.5868
G01 X55.2470 Y26.5830
G01 X55.2391 Y26.5772
G01 X55.2164 Y26.5588
G01 X55.2105 Y26.5534
G01 X52.0961 Y23.4390
G01 X51.9934 Y23.3797
G01 X51.8788 Y23.3490
G01 X42.1402 Y23.3490
G01 X42.0256 Y23.3797
G01 X41.9229 Y23.4390
G01 X30.8390 Y34.5229
G01 X30.7797 Y34.6256
G01 X30.7490 Y34.7402
G01 X30.7490 Y42.2701
G01 X30.7483 Y42.2820
G01 X30.7462 Y42.2937
G01 X30.7245 Y42.3677
G01 X30.7211 Y42.3769
G01 X30.7179 Y42.3835
G01 X30.7130 Y42.3920
G01 X30.7072 Y42.3999
G01 X30.6888 Y42.4226
G01 X30.6834 Y42.4285
G01 X25.5905 Y47.5214
G01 X25.5816 Y47.5293
G01 X25.5718 Y47.5361
G01 X25.5064 Y47.5719
G01 X25.4998 Y47.5752
G01 X25.4930 Y47.5780
G01 X25.4836 Y47.5809
G01 X25.4740 Y47.5829
G01 X25.4428 Y47.5864
G01 X25.4321 Y47.5870
G01 X23.6840 Y47.5870
G01 X23.6722 Y47.5860
G01 X23.6605 Y47.5836
G01 X23.5912 Y47.5633
G01 X23.5818 Y47.5600
G01 X23.5706 Y47.5546
G01 X23.5622 Y47.5494
G01 X23.5544 Y47.5433
G01 X23.5471 Y47.5365
G01 X23.4964 Y47.4781
G01 X23.4905 Y47.4701
G01 X23.4854 Y47.4616
G01 X23.4821 Y47.4549
G01 X23.4794 Y47.4480
G01 X23.4772 Y47.4409
G01 X23.4755 Y47.4336
G01 X23.4644 Y47.3572
G01 X23.4638 Y47.3499
G01 X23.4637 Y47.3427
G01 X23.4642 Y47.3354
G01 X23.4651 Y47.3282
G01 X23.4679 Y47.3164
G01 X23.4899 Y47.2583
G01 X23.4928 Y47.2515
G01 X23.4963 Y47.2449
G01 X23.5038 Y47.2330
G01 X23.5689 Y47.0761
G01 X23.6020 Y46.9095
G01 X23.6020 Y46.7395
G00 Z2.0000
G00 X23.5356 Y48.6777
G01 F60.00
G01 Z0.0000
G01 F80.00
G01 X23.5527 Y48.6971
G01 X23.5733 Y48.7243
G01 X25.4742 Y48.7243
G01 X25.4709 Y48.6993
G01 X25.4697 Y48.6777
G01 X23.5356 Y48.6777
G00 Z2.0000
G00 X23.4736 Y48.9143
G01 F60.00
G01 Z0.0000
G01 F80.00
G01 X31.6980 Y48.9143
G01 X39.3495 Y41.2629
G01 X39.3495 Y39.7995
G01 X39.3498 Y39.7921
G01 X39.3510 Y39.7824
G01 X39.3525 Y39.7752
G01 X39.3553 Y39.7658
G01 X39.3591 Y39.7567
G01 X39.3637 Y39.7481
G01 X39.3692 Y39.7399
G01 X39.3754 Y39.7323
G01 X39.3805 Y39.7271
G01 X39.3880 Y39.7207
G01 X39.3939 Y39.7164
G01 X39.4024 Y39.7113
G01 X39.4112 Y39.7071
G01 X39.4205 Y39.7038
G01 X39.4300 Y39.7014
G01 X39.4397 Y39.7000
G01 X39.4495 Y39.6995
G01 X41.4495 Y39.6995
G01 X41.4593 Y39.7000
G01 X41.4714 Y39.7019
G01 X41.4785 Y39.7038
G01 X41.4855 Y39.7062
G01 X41.4945 Y39.7102
G01 X41.5009 Y39.7137
G01 X41.5071 Y39.7177
G01 X41.5129 Y39.7222
G01 X41.5185 Y39.7271
G01 X41.5236 Y39.7323
G01 X41.5283 Y39.7380
G01 X41.5340 Y39.7460
G01 X41.5377 Y39.7524
G01 X41.5409 Y39.7590
G01 X41.5437 Y39.7658
G01 X41.5459 Y39.7728
G01 X41.5476 Y39.7800
G01 X41.5487 Y39.7873
G01 X41.5495 Y39.7995
G01 X41.5495 Y40.3493
G01 X42.6995 Y40.3493
G01 X42.7412 Y40.3513
G01 X42.7825 Y40.3571
G01 X42.7921 Y40.3591
G01 X42.8302 Y40.3687
G01 X42.8718 Y40.3836
G01 X42.9073 Y40.4003
G01 X42.9160 Y40.4049
G01 X42.9496 Y40.4252
G01 X42.9832 Y40.4500
G01 X43.0178 Y40.4812
G01 X51.3860 Y48.8493
G01 X57.0130 Y48.8493
G01 X58.9993 Y46.8630
G01 X58.9993 Y41.8995
G01 X58.4495 Y41.8995
G01 X58.4397 Y41.8990
G01 X58.4324 Y41.8980
G01 X58.4252 Y41.8965
G01 X58.4181 Y41.8945
G01 X58.4112 Y41.8919
G01 X58.4045 Y41.8888
G01 X58.3981 Y41.8853
G01 X58.3919 Y41.8813
G01 X58.3861 Y41.8768
G01 X58.3805 Y41.8719
G01 X58.3754 Y41.8667
G01 X58.3707 Y41.8610
G01 X58.3664 Y41.8551
G01 X58.3625 Y41.8488
G01 X58.3591 Y41.8423
G01 X58.3562 Y41.8355
G01 X58.3538 Y41.8285
G01 X58.3519 Y41.8214
G01 X58.3506 Y41.8142
G01 X58.3498 Y41.8069
G01 X58.3495 Y41.7995
G01 X58.3495 Y39.7995
G01 X58.3500 Y39.7897
G01 X58.3514 Y39.7800
G01 X58.3538 Y39.7705
G01 X58.3562 Y39.7635
G01 X58.3602 Y39.7545
G01 X58.3637 Y39.7481
G01 X58.3677 Y39.7419
G01 X58.3738 Y39.7342
G01 X58.3788 Y39.7288
G01 X58.3842 Y39.7238
G01 X58.3919 Y39.7177
G01 X58.3981 Y39.7137
G01 X58.4045 Y39.7102
G01 X58.4112 Y39.7071
G01 X58.4205 Y39.7038
G01 X58.4276 Y39.7019
G01 X58.4373 Y39.7003
G01 X58.4446 Y39.6996
G01 X60.4495 Y39.6995
G01 X60.4569 Y39.6998
G01 X60.4666 Y39.7010
G01 X60.4762 Y39.7031
G01 X60.4832 Y39.7053
G01 X60.4923 Y39.7091
G01 X60.5009 Y39.7137
G01 X60.5071 Y39.7177
G01 X60.5148 Y39.7238
G01 X60.5219 Y39.7305
G01 X60.5283 Y39.7380
G01 X60.5340 Y39.7460
G01 X60.5377 Y39.7524
G01 X60.5409 Y39.7590
G01 X60.5445 Y39.7681
G01 X60.5465 Y39.7752
G01 X60.5484 Y39.7848
G01 X60.5492 Y39.7921
G01 X60.5495 Y39.7995
G01 X60.5495 Y40.3609
G01 X60.5802 Y40.3687
G01 X60.6195 Y40.3827
G01 X60.6263 Y40.3856
G01 X60.6639 Y40.4037
G01 X60.6996 Y40.4252
G01 X60.7312 Y40.4485
G01 X60.7388 Y40.4547
G01 X60.7678 Y40.4812
G01 X69.1360 Y48.8493
G01 X76.3130 Y48.8493
G01 X78.2493 Y46.9130
G01 X78.2493 Y41.9595
G01 X77.6995 Y41.9595
G01 X77.6897 Y41.9590
G01 X77.6824 Y41.9580
G01 X77.6752 Y41.9565
G01 X77.6681 Y41.9545
G01 X77.6612 Y41.9519
G01 X77.6545 Y41.9488
G01 X77.6481 Y41.9453
G01 X77.6419 Y41.9413
G01 X77.6361 Y41.9368
G01 X77.6305 Y41.9319
G01 X77.6254 Y41.9267
G01 X77.6207 Y41.9210
G01 X77.6164 Y41.9151
G01 X77.6125 Y41.9088
G01 X77.6091 Y41.9023
G01 X77.6062 Y41.8955
G01 X77.6038 Y41.8885
G01 X77.6019 Y41.8814
G01 X77.6006 Y41.8742
G01 X77.5998 Y41.8669
G01 X77.5995 Y41.8595
G01 X77.5995 Y39.8595
G01 X77.6000 Y39.8497
G01 X77.6014 Y39.8400
G01 X77.6031 Y39.8328
G01 X77.6062 Y39.8235
G01 X77.6091 Y39.8167
G01 X77.6125 Y39.8102
G01 X77.6164 Y39.8039
G01 X77.6207 Y39.7980
G01 X77.6254 Y39.7923
G01 X77.6305 Y39.7871
G01 X77.6361 Y39.7822
G01 X77.6419 Y39.7777
G01 X77.6481 Y39.7737
G01 X77.6545 Y39.7702
G01 X77.6612 Y39.7671
G01 X77.6681 Y39.7645
G01 X77.6752 Y39.7625
G01 X77.6824 Y39.7610
G01 X77.6897 Y39.7600
G01 X77.6970 Y39.7595
G01 X79.6995 Y39.7595
G01 X79.7093 Y39.7600
G01 X79.7166 Y39.7610
G01 X79.7238 Y39.7625
G01 X79.7332 Y39.7653
G01 X79.7423 Y39.7691
G01 X79.7488 Y39.7725
G01 X79.7551 Y39.7764
G01 X79.7629 Y39.7822
G01 X79.7702 Y39.7888
G01 X79.7752 Y39.7942
G01 X79.7813 Y39.8019
G01 X79.7865 Y39.8102
G01 X79.7909 Y39.8190
G01 X79.7937 Y39.8258
G01 X79.7959 Y39.8328
G01 X79.7980 Y39.8424
G01 X79.7990 Y39.8497
G01 X79.7995 Y39.8595
G01 X79.7995 Y41.8595
G01 X79.7992 Y41.8669
G01 X79.7984 Y41.8742
G01 X79.7971 Y41.8814
G01 X79.7952 Y41.8885
G01 X79.7928 Y41.8955
G01 X79.7899 Y41.9023
G01 X79.7865 Y41.9088
G01 X79.7826 Y41.9151
G01 X79.7783 Y41.9210
G01 X79.7736 Y41.9267
G01 X79.7685 Y41.9319
G01 X79.7629 Y41.9368
G01 X79.7571 Y41.9413
G01 X79.7509 Y41.9453
G01 X79.7445 Y41.9488
G01 X79.7378 Y41.9519
G01 X79.7309 Y41.9545
G01 X79.7238 Y41.9565
G01 X79.7166 Y41.9580
G01 X79.7093 Y41.9590
G01 X79.6995 Y41.9595
G01 X79.1497 Y41.9595
G01 X79.1497 Y47.0995
G01 X79.1475 Y47.1436
G01 X79.1419 Y47.1825
G01 X79.1399 Y47.1921
G01 X79.1295 Y47.2325
G01 X79.1172 Y47.2672
G01 X79.1134 Y47.2763
G01 X79.0965 Y47.3117
G01 X79.0764 Y47.3455
G01 X79.0710 Y47.3536
G01 X79.0475 Y47.3851
G01 X79.0195 Y47.4161
G01 X76.8178 Y49.6178
G01 X76.7888 Y49.6443
G01 X76.7812 Y49.6505
G01 X76.7496 Y49.6738
G01 X76.7117 Y49.6965
G01 X76.6718 Y49.7154
G01 X76.6348 Y49.7288
G01 X76.6254 Y49.7316
G01 X76.5849 Y49.7415
G01 X76.5436 Y49.7475
G01 X76.4995 Y49.7497
G01 X68.9495 Y49.7497
G01 X68.9054 Y49.7475
G01 X68.8665 Y49.7419
G01 X68.8569 Y49.7399
G01 X68.8188 Y49.7303
G01 X68.7818 Y49.7172
G01 X68.7727 Y49.7134
G01 X68.7395 Y49.6976
G01 X68.7035 Y49.6764
G01 X68.6954 Y49.6710
G01 X68.6639 Y49.6475
G01 X68.6312 Y49.6178
G01 X60.5495 Y41.5361
G01 X60.5495 Y41.7995
G01 X60.5492 Y41.8069
G01 X60.5484 Y41.8142
G01 X60.5465 Y41.8238
G01 X60.5428 Y41.8355
G01 X60.5377 Y41.8466
G01 X60.5313 Y41.8571
G01 X60.5236 Y41.8667
G01 X60.5167 Y41.8736
G01 X60.5071 Y41.8813
G01 X60.4988 Y41.8865
G01 X60.4878 Y41.8919
G01 X60.4762 Y41.8959
G01 X60.4642 Y41.8984
G01 X60.4520 Y41.8995
G01 X59.8997 Y41.8995
G01 X59.8997 Y47.0495
G01 X59.8975 Y47.0936
G01 X59.8910 Y47.1373
G01 X59.8803 Y47.1802
G01 X59.8663 Y47.2195
G01 X59.8465 Y47.2617
G01 X59.8238 Y47.2996
G01 X59.7975 Y47.3351
G01 X59.7678 Y47.3678
G01 X57.5178 Y49.6178
G01 X57.4870 Y49.6459
G01 X57.4496 Y49.6738
G01 X57.4160 Y49.6941
G01 X57.4073 Y49.6987
G01 X57.3763 Y49.7134
G01 X57.3672 Y49.7172
G01 X57.3302 Y49.7303
G01 X57.2873 Y49.7410
G01 X57.2436 Y49.7475
G01 X57.2020 Y49.7496
G01 X51.1995 Y49.7497
G01 X51.1554 Y49.7475
G01 X51.1165 Y49.7419
G01 X51.1069 Y49.7399
G01 X51.0688 Y49.7303
G01 X51.0318 Y49.7172
G01 X51.0227 Y49.7134
G01 X50.9873 Y49.6965
G01 X50.9494 Y49.6738
G01 X50.9178 Y49.6505
G01 X50.9102 Y49.6443
G01 X50.8812 Y49.6178
G01 X42.5130 Y41.2497
G01 X41.5495 Y41.2497
G01 X41.5495 Y41.7995
G01 X41.5487 Y41.8117
G01 X41.5476 Y41.8190
G01 X41.5459 Y41.8262
G01 X41.5437 Y41.8332
G01 X41.5409 Y41.8400
G01 X41.5365 Y41.8488
G01 X41.5326 Y41.8551
G01 X41.5283 Y41.8610
G01 X41.5236 Y41.8667
G01 X41.5185 Y41.8719
G01 X41.5129 Y41.8768
G01 X41.5071 Y41.8813
G01 X41.5009 Y41.8853
G01 X41.4945 Y41.8888
G01 X41.4878 Y41.8919
G01 X41.4809 Y41.8945
G01 X41.4738 Y41.8965
G01 X41.4617 Y41.8987
G01 X41.4495 Y41.8995
G01 X39.9861 Y41.8995
G01 X32.2028 Y49.6828
G01 X32.1701 Y49.7125
G01 X32.1346 Y49.7388
G01 X32.0967 Y49.7615
G01 X32.0568 Y49.7804
G01 X32.0152 Y49.7953
G01 X31.9723 Y49.8060
G01 X31.9286 Y49.8125
G01 X31.8845 Y49.8147
G01 X23.4736 Y49.8147
G01 X23.4548 Y49.8454
G01 X23.4074 Y49.9094
G01 X23.4026 Y49.9151
G01 X23.3473 Y49.9757
G01 X23.2863 Y50.0308
G01 X23.2224 Y50.0784
G01 X23.2143 Y50.0839
G01 X23.1480 Y50.1235
G01 X23.1415 Y50.1269
G01 X23.0694 Y50.1609
G01 X22.9944 Y50.1878
G01 X22.9850 Y50.1907
G01 X22.9077 Y50.2099
G01 X22.8289 Y50.2217
G01 X22.8191 Y50.2227
G01 X22.7395 Y50.2265
G01 X22.6599 Y50.2227
G01 X22.6501 Y50.2217
G01 X22.5713 Y50.2099
G01 X22.4940 Y50.1907
G01 X22.4846 Y50.1878
G01 X22.4096 Y50.1609
G01 X22.3332 Y50.1247
G01 X22.2647 Y50.0839
G01 X22.2566 Y50.0784
G01 X22.1927 Y50.0308
G01 X22.1335 Y49.9774
G01 X22.1266 Y49.9705
G01 X22.0732 Y49.9113
G01 X22.0256 Y49.8474
G01 X22.0214 Y49.8413
G01 X21.9793 Y49.7708
G01 X21.9431 Y49.6944
G01 X21.9146 Y49.6147
G01 X21.8941 Y49.5327
G01 X21.8817 Y49.4490
G01 X21.8775 Y49.3645
G01 X21.8817 Y49.2800
G01 X21.8941 Y49.1963
G01 X21.9146 Y49.1143
G01 X21.9431 Y49.0346
G01 X21.9793 Y48.9582
G01 X22.0228 Y48.8856
G01 X22.0732 Y48.8177
G01 X22.1300 Y48.7550
G01 X22.1927 Y48.6982
G01 X22.2566 Y48.6506
G01 X22.2627 Y48.6464
G01 X22.3332 Y48.6043
G01 X22.4096 Y48.5681
G01 X22.4893 Y48.5396
G01 X22.5713 Y48.5191
G01 X22.6550 Y48.5067
G01 X22.7395 Y48.5025
G01 X22.8240 Y48.5067
G01 X22.9028 Y48.5182
G01 X22.9101 Y48.5196
G01 X22.9897 Y48.5396
G01 X23.0694 Y48.5681
G01 X23.1458 Y48.6043
G01 X23.2143 Y48.6451
G01 X23.2204 Y48.6492
G01 X23.2863 Y48.6982
G01 X23.3455 Y48.7516
G01 X23.3507 Y48.7567
G01 X23.4026 Y48.8139
G01 X23.4074 Y48.8196
G01 X23.4548 Y48.8836
G01 X23.4736 Y48.9143
G00 Z2.0000
G00 X22.2035 Y50.8735
G01 F60.00
G01 Z0.0000
G01 F80.00
G01 X22.4305 Y51.1005
G01 X22.4893 Y51.0796
G01 X22.5713 Y51.0591
G01 X22.6550 Y51.0467
G01 X22.7395 Y51.0425
G01 X22.8240 Y51.0467
G01 X22.9077 Y51.0591
G01 X22.9897 Y51.0796
G01 X23.0485 Y51.1005
G01 X23.2755 Y50.8735
G01 X23.1856 Y50.8276
G01 X23.0116 Y50.7711
G01 X22.8310 Y50.7425
G01 X22.6480 Y50.7425
G01 X22.4674 Y50.7711
G01 X22.2934 Y50.8276
G01 X22.2035 Y50.8735
G00 Z2.0000
G00 X21.9289 Y52.5913
G01 F60.00
G01 Z0.0000
G01 F80.00
G01 X21.9434 Y52.5913
G01 X21.9297 Y52.5759
G01 X21.9296 Y52.5804
G01 X21.9289 Y52.5913
G00 Z2.0000
G00 X23.5356 Y52.5913
G01 F60.00
G01 Z0.0000
G01 F80.00
G01 X23.5543 Y52.5913
G01 X23.5518 Y52.5730
G01 X23.5434 Y52.5827
G01 X23.5356 Y52.5913
G00 Z2.0000
G00 X22.2035 Y55.4755
G01 F60.00
G01 Z0.0000
G01 F80.00
G01 X22.2934 Y55.5214
G01 X22.4674 Y55.5779
G01 X22.6480 Y55.6065
G01 X22.8310 Y55.6065
G01 X23.0116 Y55.5779
G01 X23.1856 Y55.5214
G01 X23.2755 Y55.4755
G01 X23.0485 Y55.2485
G01 X22.9897 Y55.2694
G01 X22.9077 Y55.2899
G01 X22.8240 Y55.3023
G01 X22.7395 Y55.3065
G01 X22.6550 Y55.3023
G01 X22.5713 Y55.2899
G01 X22.4893 Y55.2694
G01 X22.4305 Y55.2485
G01 X22.2035 Y55.4755
G00 Z2.0000
G00 X21.8770 Y57.0695
G01 F60.00
G01 Z0.0000
G01 F80.00
G01 X21.9101 Y57.2361
G01 X21.9752 Y57.3930
G01 X22.0696 Y57.5343
G01 X22.1897 Y57.6544
G01 X22.3310 Y57.7488
G01 X22.4879 Y57.8139
G01 X22.6545 Y57.8470
G01 X22.8245 Y57.8470
G01 X22.9911 Y57.8139
G01 X23.1480 Y57.7488
G01 X23.2893 Y57.6544
G01 X23.4095 Y57.5343
G01 X23.4165 Y57.5251
G01 X23.4230 Y57.5181
G01 X23.4819 Y57.4686
G01 X23.4877 Y57.4641
G01 X23.4939 Y57.4600
G01 X23.5025 Y57.4553
G01 X23.5115 Y57.4515
G01 X23.5185 Y57.4492
G01 X23.5777 Y57.4366
G01 X23.5853 Y57.4355
G01 X23.5930 Y57.4350
G01 X37.2951 Y57.4350
G01 X37.3070 Y57.4357
G01 X37.3164 Y57.4373
G01 X37.3903 Y57.4587
G01 X37.3973 Y57.4611
G01 X37.4041 Y57.4639
G01 X37.4128 Y57.4685
G01 X37.4210 Y57.4738
G01 X37.4455 Y57.4935
G01 X37.4516 Y57.4987
G01 X39.2834 Y59.3305
G01 X39.2913 Y59.3394
G01 X39.2981 Y59.3492
G01 X39.3134 Y59.3771
G01 X39.3307 Y59.4042
G01 X39.3342 Y59.4109
G01 X39.3381 Y59.4202
G01 X39.3410 Y59.4298
G01 X39.3449 Y59.4470
G01 X39.3484 Y59.4782
G01 X39.3490 Y59.4862
G01 X39.3490 Y60.8694
G01 X39.3548 Y60.8987
G01 X39.3770 Y60.9320
G01 X39.4103 Y60.9542
G01 X39.4396 Y60.9600
G01 X40.9040 Y60.9600
G01 X40.9145 Y60.9609
G01 X40.9466 Y60.9651
G01 X40.9569 Y60.9670
G01 X41.0802 Y61.0000
G01 X58.8188 Y61.0000
G01 X58.9421 Y60.9670
G01 X58.9524 Y60.9651
G01 X58.9845 Y60.9609
G01 X58.9950 Y60.9600
G01 X59.9014 Y60.9600
G01 X59.9145 Y60.9609
G01 X59.9543 Y60.9664
G01 X60.0802 Y61.0000
G01 X78.0688 Y61.0000
G01 X78.1921 Y60.9670
G01 X78.2024 Y60.9651
G01 X78.2345 Y60.9609
G01 X78.2450 Y60.9600
G01 X79.7094 Y60.9600
G01 X79.7387 Y60.9542
G01 X79.7720 Y60.9320
G01 X79.7942 Y60.8987
G01 X79.8000 Y60.8694
G01 X79.8000 Y58.8496
G01 X79.7942 Y58.8203
G01 X79.7720 Y58.7870
G01 X79.7387 Y58.7648
G01 X79.7094 Y58.7590
G01 X77.6896 Y58.7590
G01 X77.6603 Y58.7648
G01 X77.6270 Y58.7870
G01 X77.6048 Y58.8203
G01 X77.5990 Y58.8496
G01 X77.5990 Y59.8750
G01 X77.5983 Y59.8869
G01 X77.5967 Y59.8963
G01 X77.5753 Y59.9702
G01 X77.5720 Y59.9796
G01 X77.5666 Y59.9908
G01 X77.5614 Y59.9992
G01 X77.5537 Y60.0089
G01 X77.5467 Y60.0160
G01 X77.4901 Y60.0650
G01 X77.4800 Y60.0723
G01 X77.4713 Y60.0772
G01 X77.4621 Y60.0812
G01 X77.4502 Y60.0849
G01 X77.3939 Y60.0972
G01 X77.3845 Y60.0985
G01 X77.3774 Y60.0990
G01 X60.7740 Y60.0990
G01 X60.7669 Y60.0987
G01 X60.7574 Y60.0976
G01 X60.7481 Y60.0956
G01 X60.6788 Y60.0753
G01 X60.6717 Y60.0729
G01 X60.6626 Y60.0689
G01 X60.6539 Y60.0641
G01 X60.6458 Y60.0584
G01 X60.6383 Y60.0520
G01 X60.6314 Y60.0448
G01 X60.5840 Y59.9901
G01 X60.5795 Y59.9841
G01 X60.5741 Y59.9757
G01 X60.5687 Y59.9644
G01 X60.5647 Y59.9526
G01 X60.5523 Y59.8963
G01 X60.5505 Y59.8845
G01 X60.5500 Y59.8750
G01 X60.5500 Y58.8496
G01 X60.5442 Y58.8203
G01 X60.5220 Y58.7870
G01 X60.4887 Y58.7648
G01 X60.4594 Y58.7590
G01 X58.4396 Y58.7590
G01 X58.4103 Y58.7648
G01 X58.3770 Y58.7870
G01 X58.3548 Y58.8203
G01 X58.3490 Y58.8496
G01 X58.3490 Y59.8750
G01 X58.3483 Y59.8869
G01 X58.3467 Y59.8963
G01 X58.3253 Y59.9702
G01 X58.3220 Y59.9796
G01 X58.3166 Y59.9908
G01 X58.3114 Y59.9992
G01 X58.3053 Y60.0071
G01 X58.2985 Y60.0143
G01 X58.2401 Y60.0650
G01 X58.2300 Y60.0723
G01 X58.2213 Y60.0772
G01 X58.2121 Y60.0812
G01 X58.2002 Y60.0849
G01 X58.1439 Y60.0972
G01 X58.1321 Y60.0987
G01 X58.1250 Y60.0990
G01 X41.7716 Y60.0990
G01 X41.7598 Y60.0980
G01 X41.7481 Y60.0956
G01 X41.6741 Y60.0737
G01 X41.6649 Y60.0700
G01 X41.6539 Y60.0641
G01 X41.6458 Y60.0584
G01 X41.6383 Y60.0520
G01 X41.6314 Y60.0448
G01 X41.5840 Y59.9901
G01 X41.5781 Y59.9821
G01 X41.5729 Y59.9735
G01 X41.5687 Y59.9644
G01 X41.5647 Y59.9526
G01 X41.5518 Y59.8939
G01 X41.5505 Y59.8845
G01 X41.5500 Y59.8750
G01 X41.5500 Y58.8496
G01 X41.5442 Y58.8203
G01 X41.5220 Y58.7870
G01 X41.4887 Y58.7648
G01 X41.4594 Y58.7590
G01 X40.0741 Y58.7589
G01 X40.0623 Y58.7576
G01 X40.0530 Y58.7556
G01 X39.9837 Y58.7353
G01 X39.9721 Y58.7311
G01 X39.9612 Y58.7255
G01 X39.9550 Y58.7216
G01 X39.9491 Y58.7172
G01 X39.9264 Y58.6988
G01 X39.9205 Y58.6934
G01 X37.8511 Y56.6240
G01 X37.7484 Y56.5647
G01 X37.6338 Y56.5340
G01 X23.5932 Y56.5340
G01 X23.5813 Y56.5330
G01 X23.5697 Y56.5306
G01 X23.4980 Y56.5095
G01 X23.4911 Y56.5070
G01 X23.4843 Y56.5040
G01 X23.4779 Y56.5005
G01 X23.4716 Y56.4966
G01 X23.4658 Y56.4922
G01 X23.4602 Y56.4874
G01 X23.4224 Y56.4502
G01 X23.4154 Y56.4427
G01 X23.4095 Y56.4347
G01 X23.2893 Y56.3146
G01 X23.1480 Y56.2202
G01 X22.9911 Y56.1551
G01 X22.8245 Y56.1220
G01 X22.6546 Y56.1220
G01 X22.4879 Y56.1551
G01 X22.3310 Y56.2202
G01 X22.1897 Y56.3146
G01 X22.0696 Y56.4347
G01 X21.9752 Y56.5760
G01 X21.9101 Y56.7329
G01 X21.8770 Y56.8996
G01 X21.8770 Y57.0695
G00 Z2.0000
G00 X23.4736 Y56.5343
G01 F60.00
G01 Z0.0000
G01 F80.00
G01 X37.5745 Y56.5343
G01 X37.6186 Y56.5365
G01 X37.6623 Y56.5430
G01 X37.7052 Y56.5537
G01 X37.7422 Y56.5668
G01 X37.7513 Y56.5706
G01 X37.7867 Y56.5875
G01 X37.8205 Y56.6076
G01 X37.8286 Y56.6130
G01 X37.8601 Y56.6365
G01 X37.8911 Y56.6645
G01 X39.9861 Y58.7595
G01 X41.4520 Y58.7595
G01 X41.4617 Y58.7603
G01 X41.4690 Y58.7614
G01 X41.4785 Y58.7638
G01 X41.4855 Y58.7662
G01 X41.4923 Y58.7691
G01 X41.5009 Y58.7737
G01 X41.5091 Y58.7792
G01 X41.5167 Y58.7854
G01 X41.5236 Y58.7923
G01 X41.5298 Y58.7999
G01 X41.5353 Y58.8081
G01 X41.5399 Y58.8167
G01 X41.5437 Y58.8258
G01 X41.5471 Y58.8376
G01 X41.5487 Y58.8473
G01 X41.5495 Y58.8570
G01 X41.5495 Y60.0993
G01 X58.3495 Y60.0993
G01 X58.3495 Y58.8570
G01 X58.3506 Y58.8448
G01 X58.3531 Y58.8328
G01 X58.3571 Y58.8212
G01 X58.3625 Y58.8102
G01 X58.3692 Y58.7999
G01 X58.3771 Y58.7905
G01 X58.3861 Y58.7822
G01 X58.3960 Y58.7750
G01 X58.4067 Y58.7691
G01 X58.4135 Y58.7662
G01 X58.4205 Y58.7638
G01 X58.4276 Y58.7619
G01 X58.4348 Y58.7606
G01 X58.4421 Y58.7598
G01 X58.4495 Y58.7595
G01 X60.4495 Y58.7595
G01 X60.4593 Y58.7600
G01 X60.4690 Y58.7614
G01 X60.4785 Y58.7638
G01 X60.4855 Y58.7662
G01 X60.4945 Y58.7702
G01 X60.5030 Y58.7750
G01 X60.5110 Y58.7807
G01 X60.5185 Y58.7871
G01 X60.5252 Y58.7942
G01 X60.5298 Y58.7999
G01 X60.5353 Y58.8081
G01 X60.5399 Y58.8167
G01 X60.5437 Y58.8258
G01 X60.5465 Y58.8352
G01 X60.5480 Y58.8424
G01 X60.5492 Y58.8521
G01 X60.5495 Y58.8595
G01 X60.5495 Y60.0993
G01 X77.5995 Y60.0993
G01 X77.5995 Y58.8570
G01 X77.6006 Y58.8448
G01 X77.6031 Y58.8328
G01 X77.6071 Y58.8212
G01 X77.6125 Y58.8102
G01 X77.6192 Y58.7999
G01 X77.6271 Y58.7905
G01 X77.6361 Y58.7822
G01 X77.6460 Y58.7750
G01 X77.6524 Y58.7713
G01 X77.6590 Y58.7681
G01 X77.6658 Y58.7653
G01 X77.6728 Y58.7631
G01 X77.6848 Y58.7606
G01 X77.6921 Y58.7598
G01 X77.6995 Y58.7595
G01 X79.7020 Y58.7595
G01 X79.7117 Y58.7603
G01 X79.7190 Y58.7614
G01 X79.7285 Y58.7638
G01 X79.7378 Y58.7671
G01 X79.7466 Y58.7713
G01 X79.7551 Y58.7764
G01 X79.7629 Y58.7822
G01 X79.7702 Y58.7888
G01 X79.7752 Y58.7942
G01 X79.7813 Y58.8019
G01 X79.7865 Y58.8102
G01 X79.7909 Y58.8190
G01 X79.7945 Y58.8281
G01 X79.7971 Y58.8376
G01 X79.7984 Y58.8448
G01 X79.7994 Y58.8546
G01 X79.7995 Y60.8595
G01 X79.7992 Y60.8669
G01 X79.7984 Y60.8742
G01 X79.7965 Y60.8838
G01 X79.7945 Y60.8909
G01 X79.7909 Y60.9000
G01 X79.7865 Y60.9088
G01 X79.7813 Y60.9171
G01 X79.7768 Y60.9229
G01 X79.7702 Y60.9302
G01 X79.7629 Y60.9368
G01 X79.7551 Y60.9426
G01 X79.7466 Y60.9477
G01 X79.7400 Y60.9509
G01 X79.7332 Y60.9537
G01 X79.7238 Y60.9565
G01 X79.7166 Y60.9580
G01 X79.7069 Y60.9592
G01 X79.6995 Y60.9595
G01 X78.1945 Y60.9595
G01 X78.1795 Y60.9663
G01 X78.1425 Y60.9795
G01 X78.0997 Y60.9905
G01 X78.0536 Y60.9975
G01 X78.0095 Y60.9997
G01 X60.1395 Y60.9997
G01 X60.0954 Y60.9975
G01 X60.0493 Y60.9905
G01 X60.0065 Y60.9795
G01 X59.9695 Y60.9663
G01 X59.9545 Y60.9595
G01 X58.9445 Y60.9595
G01 X58.9295 Y60.9663
G01 X58.8925 Y60.9795
G01 X58.8497 Y60.9905
G01 X58.8036 Y60.9975
G01 X58.7595 Y60.9997
G01 X41.1395 Y60.9997
G01 X41.0954 Y60.9975
G01 X41.0493 Y60.9905
G01 X41.0065 Y60.9795
G01 X40.9695 Y60.9663
G01 X40.9545 Y60.9595
G01 X39.4495 Y60.9595
G01 X39.4421 Y60.9592
G01 X39.4348 Y60.9584
G01 X39.4252 Y60.9565
G01 X39.4181 Y60.9545
G01 X39.4090 Y60.9509
G01 X39.4002 Y60.9465
G01 X39.3919 Y60.9413
G01 X39.3861 Y60.9368
G01 X39.3788 Y60.9302
G01 X39.3738 Y60.9248
G01 X39.3677 Y60.9171
G01 X39.3625 Y60.9088
G01 X39.3581 Y60.9000
G01 X39.3545 Y60.8909
G01 X39.3525 Y60.8838
G01 X39.3506 Y60.8742
G01 X39.3496 Y60.8644
G01 X39.3495 Y59.3961
G01 X37.3880 Y57.4347
G01 X23.4736 Y57.4347
G01 X23.4548 Y57.4654
G01 X23.4074 Y57.5294
G01 X23.4026 Y57.5351
G01 X23.3473 Y57.5957
G01 X23.2863 Y57.6508
G01 X23.2224 Y57.6984
G01 X23.2143 Y57.7039
G01 X23.1480 Y57.7435
G01 X23.1415 Y57.7469
G01 X23.0694 Y57.7809
G01 X22.9944 Y57.8078
G01 X22.9850 Y57.8107
G01 X22.9077 Y57.8299
G01 X22.8289 Y57.8417
G01 X22.8191 Y57.8427
G01 X22.7395 Y57.8465
G01 X22.6599 Y57.8427
G01 X22.6501 Y57.8417
G01 X22.5713 Y57.8299
G01 X22.4940 Y57.8107
G01 X22.4846 Y57.8078
G01 X22.4096 Y57.7809
G01 X22.3332 Y57.7447
G01 X22.2647 Y57.7039
G01 X22.2566 Y57.6984
G01 X22.1927 Y57.6508
G01 X22.1335 Y57.5974
G01 X22.1266 Y57.5905
G01 X22.0732 Y57.5313
G01 X22.0256 Y57.4674
G01 X22.0214 Y57.4613
G01 X21.9793 Y57.3908
G01 X21.9431 Y57.3144
G01 X21.9146 Y57.2347
G01 X21.8941 Y57.1527
G01 X21.8817 Y57.0690
G01 X21.8775 Y56.9845
G01 X21.8817 Y56.9000
G01 X21.8941 Y56.8163
G01 X21.9146 Y56.7343
G01 X21.9431 Y56.6546
G01 X21.9793 Y56.5782
G01 X22.0228 Y56.5056
G01 X22.0732 Y56.4377
G01 X22.1300 Y56.3750
G01 X22.1927 Y56.3182
G01 X22.2566 Y56.2706
G01 X22.2627 Y56.2664
G01 X22.3332 Y56.2243
G01 X22.4096 Y56.1881
G01 X22.4893 Y56.1596
G01 X22.5713 Y56.1391
G01 X22.6550 Y56.1267
G01 X22.7395 Y56.1225
G01 X22.8240 Y56.1267
G01 X22.9028 Y56.1382
G01 X22.9101 Y56.1396
G01 X22.9897 Y56.1596
G01 X23.0694 Y56.1881
G01 X23.1458 Y56.2243
G01 X23.2143 Y56.2651
G01 X23.2204 Y56.2692
G01 X23.2863 Y56.3182
G01 X23.3455 Y56.3716
G01 X23.3507 Y56.3767
G01 X23.4026 Y56.4339
G01 X23.4074 Y56.4396
G01 X23.4548 Y56.5036
G01 X23.4736 Y56.5343
G00 Z2.0000
G00 X20.6526 Y54.7039
G01 F60.00
G01 Z0.0000
G01 F80.00
G01 X20.6589 Y54.7115
G01 X20.7062 Y54.7756
G01 X20.7497 Y54.8482
G01 X20.7859 Y54.9246
G01 X20.8144 Y55.0043
G01 X20.8349 Y55.0863
G01 X20.8473 Y55.1700
G01 X20.8515 Y55.2545
G01 X20.8473 Y55.3390
G01 X20.8349 Y55.4227
G01 X20.8144 Y55.5047
G01 X20.7859 Y55.5844
G01 X20.7497 Y55.6608
G01 X20.7062 Y55.7334
G01 X20.6558 Y55.8013
G01 X20.5990 Y55.8640
G01 X20.5363 Y55.9208
G01 X20.4684 Y55.9712
G01 X20.3958 Y56.0147
G01 X20.3194 Y56.0509
G01 X20.2397 Y56.0794
G01 X20.1577 Y56.0999
G01 X20.0740 Y56.1123
G01 X19.9895 Y56.1165
G01 X19.9050 Y56.1123
G01 X19.8213 Y56.0999
G01 X19.7393 Y56.0794
G01 X19.6596 Y56.0509
G01 X19.5832 Y56.0147
G01 X19.5106 Y55.9712
G01 X19.4427 Y55.9208
G01 X19.3800 Y55.8640
G01 X19.3232 Y55.8013
G01 X19.2728 Y55.7334
G01 X19.2293 Y55.6608
G01 X19.1931 Y55.5844
G01 X19.1646 Y55.5047
G01 X19.1441 Y55.4227
G01 X19.1317 Y55.3390
G01 X19.1275 Y55.2545
G01 X19.1317 Y55.1700
G01 X19.1441 Y55.0863
G01 X19.1646 Y55.0043
G01 X19.1931 Y54.9246
G01 X19.2293 Y54.8482
G01 X19.2728 Y54.7756
G01 X19.3232 Y54.7077
G01 X19.3800 Y54.6450
G01 X19.4427 Y54.5882
G01 X19.5106 Y54.5378
G01 X19.5832 Y54.4943
G01 X19.6596 Y54.4581
G01 X19.7393 Y54.4296
G01 X19.8213 Y54.4091
G01 X19.9050 Y54.3967
G01 X19.9895 Y54.3925
G01 X20.0740 Y54.3967
G01 X20.1577 Y54.4091
G01 X20.2397 Y54.4296
G01 X20.3194 Y54.4581
G01 X20.3958 Y54.4943
G01 X20.4684 Y54.5378
G01 X20.5363 Y54.5882
G01 X20.5990 Y54.6450
G01 X20.6526 Y54.7039
G00 Z2.0000
G00 X19.9046 Y54.3920
G01 F60.00
G01 Z0.0000
G01 F80.00
G01 X19.7379 Y54.4251
G01 X19.5810 Y54.4902
G01 X19.4397 Y54.5846
G01 X19.3196 Y54.7047
G01 X19.2252 Y54.8460
G01 X19.1601 Y55.0029
G01 X19.1270 Y55.1696
G01 X19.1270 Y55.3394
G01 X19.1601 Y55.5061
G01 X19.2252 Y55.6630
G01 X19.3196 Y55.8043
G01 X19.4397 Y55.9244
G01 X19.5810 Y56.0188
G01 X19.7379 Y56.0839
G01 X19.9045 Y56.1170
G01 X20.0745 Y56.1170
G01 X20.2411 Y56.0839
G01 X20.3980 Y56.0188
G01 X20.5393 Y55.9244
G01 X20.6594 Y55.8043
G01 X20.7538 Y55.6630
G01 X20.8189 Y55.5061
G01 X20.8520 Y55.3395
G01 X20.8520 Y55.1695
G01 X20.8189 Y55.0029
G01 X20.7538 Y54.8460
G01 X20.6594 Y54.7047
G01 X20.5393 Y54.5846
G01 X20.3980 Y54.4902
G01 X20.2411 Y54.4251
G01 X20.0745 Y54.3920
G01 X19.9046 Y54.3920
G00 Z2.0000
G00 X21.8776 Y59.5294
G01 F60.00
G01 Z0.0000
G01 F80.00
G01 X21.8776 Y59.5196
G01 X21.8817 Y59.4400
G01 X21.8941 Y59.3563
G01 X21.9146 Y59.2743
G01 X21.9431 Y59.1946
G01 X21.9793 Y59.1182
G01 X22.0228 Y59.0456
G01 X22.0732 Y58.9777
G01 X22.1300 Y58.9150
G01 X22.1927 Y58.8582
G01 X22.2606 Y58.8078
G01 X22.3332 Y58.7643
G01 X22.4096 Y58.7281
G01 X22.4893 Y58.6996
G01 X22.5713 Y58.6791
G01 X22.6550 Y58.6667
G01 X22.7395 Y58.6625
G01 X22.8240 Y58.6667
G01 X22.9077 Y58.6791
G01 X22.9897 Y58.6996
G01 X23.0694 Y58.7281
G01 X23.1458 Y58.7643
G01 X23.2184 Y58.8078
G01 X23.2863 Y58.8582
G01 X23.3490 Y58.9150
G01 X23.4058 Y58.9777
G01 X23.4562 Y59.0456
G01 X23.4997 Y59.1182
G01 X23.5359 Y59.1946
G01 X23.5644 Y59.2743
G01 X23.5849 Y59.3563
G01 X23.5973 Y59.4400
G01 X23.6015 Y59.5245
G01 X23.5973 Y59.6090
G01 X23.5849 Y59.6927
G01 X23.5644 Y59.7747
G01 X23.5359 Y59.8544
G01 X23.4997 Y59.9308
G01 X23.4562 Y60.0034
G01 X23.4058 Y60.0713
G01 X23.3490 Y60.1340
G01 X23.2863 Y60.1908
G01 X23.2184 Y60.2412
G01 X23.1458 Y60.2847
G01 X23.0694 Y60.3209
G01 X22.9897 Y60.3494
G01 X22.9077 Y60.3699
G01 X22.8240 Y60.3823
G01 X22.7395 Y60.3865
G01 X22.6550 Y60.3823
G01 X22.5713 Y60.3699
G01 X22.4893 Y60.3494
G01 X22.4096 Y60.3209
G01 X22.3332 Y60.2847
G01 X22.2606 Y60.2412
G01 X22.1927 Y60.1908
G01 X22.1300 Y60.1340
G01 X22.0732 Y60.0713
G01 X22.0228 Y60.0034
G01 X21.9793 Y59.9308
G01 X21.9431 Y59.8544
G01 X21.9146 Y59.7747
G01 X21.8941 Y59.6927
G01 X21.8817 Y59.6090
G01 X21.8776 Y59.5294
G00 Z2.0000
G00 X21.8770 Y59.6094
G01 F60.00
G01 Z0.0000
G01 F80.00
G01 X21.9101 Y59.7761
G01 X21.9752 Y59.9330
G01 X22.0696 Y60.0743
G01 X22.1897 Y60.1944
G01 X22.3310 Y60.2888
G01 X22.4879 Y60.3539
G01 X22.6545 Y60.3870
G01 X22.8245 Y60.3870
G01 X22.9911 Y60.3539
G01 X23.1480 Y60.2888
G01 X23.2893 Y60.1944
G01 X23.4094 Y60.0743
G01 X23.5038 Y59.9330
G01 X23.5689 Y59.7761
G01 X23.6020 Y59.6095
G01 X23.6020 Y59.4395
G01 X23.5689 Y59.2729
G01 X23.5038 Y59.1160
G01 X23.4094 Y58.9747
G01 X23.2893 Y58.8546
G01 X23.1480 Y58.7602
G01 X22.9911 Y58.6951
G01 X22.8245 Y58.6620
G01 X22.6546 Y58.6620
G01 X22.4879 Y58.6951
G01 X22.3310 Y58.7602
G01 X22.1897 Y58.8546
G01 X22.0696 Y58.9747
G01 X21.9752 Y59.1160
G01 X21.9101 Y59.2729
G01 X21.8770 Y59.4396
G01 X21.8770 Y59.6094
G00 Z2.0000
G00 X21.8276 Y62.0694
G01 F60.00
G01 Z0.0000
G01 F80.00
G01 X21.8276 Y62.0596
G01 X21.8317 Y61.9800
G01 X21.8441 Y61.8963
G01 X21.8646 Y61.8143
G01 X21.8931 Y61.7346
G01 X21.9293 Y61.6582
G01 X21.9728 Y61.5856
G01 X22.0232 Y61.5177
G01 X22.0800 Y61.4550
G01 X22.1427 Y61.3982
G01 X22.2106 Y61.3478
G01 X22.2832 Y61.3043
G01 X22.3596 Y61.2681
G01 X22.4393 Y61.2396
G01 X22.5213 Y61.2191
G01 X22.6050 Y61.2067
G01 X22.6895 Y61.2025
G01 X22.7740 Y61.2067
G01 X22.8577 Y61.2191
G01 X22.9397 Y61.2396
G01 X23.0194 Y61.2681
G01 X23.0958 Y61.3043
G01 X23.1684 Y61.3478
G01 X23.2363 Y61.3982
G01 X23.2990 Y61.4550
G01 X23.3558 Y61.5177
G01 X23.4062 Y61.5856
G01 X23.4497 Y61.6582
G01 X23.4859 Y61.7346
G01 X23.5144 Y61.8143
G01 X23.5349 Y61.8963
G01 X23.5473 Y61.9800
G01 X23.5515 Y62.0645
G01 X23.5473 Y62.1490
G01 X23.5349 Y62.2327
G01 X23.5144 Y62.3147
G01 X23.4859 Y62.3944
G01 X23.4497 Y62.4708
G01 X23.4062 Y62.5434
G01 X23.3558 Y62.6113
G01 X23.2990 Y62.6740
G01 X23.2363 Y62.7308
G01 X23.1684 Y62.7812
G01 X23.0958 Y62.8247
G01 X23.0194 Y62.8609
G01 X22.9397 Y62.8894
G01 X22.8577 Y62.9099
G01 X22.7740 Y62.9223
G01 X22.6895 Y62.9265
G01 X22.6050 Y62.9223
G01 X22.5213 Y62.9099
G01 X22.4393 Y62.8894
G01 X22.3596 Y62.8609
G01 X22.2832 Y62.8247
G01 X22.2106 Y62.7812
G01 X22.1427 Y62.7308
G01 X22.0800 Y62.6740
G01 X22.0232 Y62.6113
G01 X21.9728 Y62.5434
G01 X21.9293 Y62.4708
G01 X21.8931 Y62.3944
G01 X21.8646 Y62.3147
G01 X21.8441 Y62.2327
G01 X21.8317 Y62.1490
G01 X21.8276 Y62.0694
G00 Z2.0000
G00 X21.8270 Y62.1494
G01 F60.00
G01 Z0.0000
G01 F80.00
G01 X21.8601 Y62.3161
G01 X21.9252 Y62.4730
G01 X22.0196 Y62.6143
G01 X22.1397 Y62.7344
G01 X22.2810 Y62.8288
G01 X22.4379 Y62.8939
G01 X22.6045 Y62.9270
G01 X22.7745 Y62.9270
G01 X22.9411 Y62.8939
G01 X23.0980 Y62.8288
G01 X23.2393 Y62.7344
G01 X23.3594 Y62.6143
G01 X23.4538 Y62.4730
G01 X23.5189 Y62.3161
G01 X23.5520 Y62.1495
G01 X23.5520 Y61.9795
G01 X23.5189 Y61.8129
G01 X23.4538 Y61.6560
G01 X23.3594 Y61.5147
G01 X23.2393 Y61.3946
G01 X23.0980 Y61.3002
G01 X22.9411 Y61.2351
G01 X22.7745 Y61.2020
G01 X22.6046 Y61.2020
G01 X22.4379 Y61.2351
G01 X22.2810 Y61.3002
G01 X22.1397 Y61.3946
G01 X22.0196 Y61.5147
G01 X21.9252 Y61.6560
G01 X21.8601 Y61.8129
G01 X21.8270 Y61.9796
G01 X21.8270 Y62.1494
G00 Z2.0000
G00 X8.1626 Y61.5139
G01 F60.00
G01 Z0.0000
G01 F80.00
G01 X8.1689 Y61.5215
G01 X8.2162 Y61.5856
G01 X8.2597 Y61.6582
G01 X8.2959 Y61.7346
G01 X8.3244 Y61.8143
G01 X8.3449 Y61.8963
G01 X8.3573 Y61.9800
G01 X8.3615 Y62.0645
G01 X8.3573 Y62.1490
G01 X8.3449 Y62.2327
G01 X8.3244 Y62.3147
G01 X8.2959 Y62.3944
G01 X8.2597 Y62.4708
G01 X8.2162 Y62.5434
G01 X8.1658 Y62.6113
G01 X8.1090 Y62.6740
G01 X8.0463 Y62.7308
G01 X7.9784 Y62.7812
G01 X7.9058 Y62.8247
G01 X7.8294 Y62.8609
G01 X7.7497 Y62.8894
G01 X7.6677 Y62.9099
G01 X7.5840 Y62.9223
G01 X7.4995 Y62.9265
G01 X7.4150 Y62.9223
G01 X7.3313 Y62.9099
G01 X7.2493 Y62.8894
G01 X7.1696 Y62.8609
G01 X7.0932 Y62.8247
G01 X7.0206 Y62.7812
G01 X6.9527 Y62.7308
G01 X6.8900 Y62.6740
G01 X6.8332 Y62.6113
G01 X6.7828 Y62.5434
G01 X6.7393 Y62.4708
G01 X6.7031 Y62.3944
G01 X6.6746 Y62.3147
G01 X6.6541 Y62.2327
G01 X6.6417 Y62.1490
G01 X6.6375 Y62.0645
G01 X6.6417 Y61.9800
G01 X6.6541 Y61.8963
G01 X6.6746 Y61.8143
G01 X6.7031 Y61.7346
G01 X6.7393 Y61.6582
G01 X6.7828 Y61.5856
G01 X6.8332 Y61.5177
G01 X6.8900 Y61.4550
G01 X6.9527 Y61.3982
G01 X7.0206 Y61.3478
G01 X7.0932 Y61.3043
G01 X7.1696 Y61.2681
G01 X7.2493 Y61.2396
G01 X7.3313 Y61.2191
G01 X7.4150 Y61.2067
G01 X7.4995 Y61.2025
G01 X7.5840 Y61.2067
G01 X7.6677 Y61.2191
G01 X7.7497 Y61.2396
G01 X7.8294 Y61.2681
G01 X7.9058 Y61.3043
G01 X7.9784 Y61.3478
G01 X8.0463 Y61.3982
G01 X8.1090 Y61.4550
G01 X8.1626 Y61.5139
G00 Z2.0000
G00 X7.4146 Y61.2020
G01 F60.00
G01 Z0.0000
G01 F80.00
G01 X7.2479 Y61.2351
G01 X7.0910 Y61.3002
G01 X6.9497 Y61.3946
G01 X6.8296 Y61.5147
G01 X6.7352 Y61.6560
G01 X6.6701 Y61.8129
G01 X6.6370 Y61.9796
G01 X6.6370 Y62.1494
G01 X6.6701 Y62.3161
G01 X6.7352 Y62.4730
G01 X6.8296 Y62.6143
G01 X6.9497 Y62.7344
G01 X7.0910 Y62.8288
G01 X7.2479 Y62.8939
G01 X7.4145 Y62.9270
G01 X7.5845 Y62.9270
G01 X7.7511 Y62.8939
G01 X7.9080 Y62.8288
G01 X8.0493 Y62.7344
G01 X8.1694 Y62.6143
G01 X8.2638 Y62.4730
G01 X8.3289 Y62.3161
G01 X8.3620 Y62.1495
G01 X8.3620 Y61.9795
G01 X8.3289 Y61.8129
G01 X8.2638 Y61.6560
G01 X8.1694 Y61.5147
G01 X8.0493 Y61.3946
G01 X7.9080 Y61.3002
G01 X7.7511 Y61.2351
G01 X7.5845 Y61.2020
G01 X7.4146 Y61.2020
G00 Z2.0000
G00 X8.1626 Y58.9739
G01 F60.00
G01 Z0.0000
G01 F80.00
G01 X8.1689 Y58.9815
G01 X8.2162 Y59.0456
G01 X8.2597 Y59.1182
G01 X8.2959 Y59.1946
G01 X8.3244 Y59.2743
G01 X8.3449 Y59.3563
G01 X8.3573 Y59.4400
G01 X8.3615 Y59.5245
G01 X8.3573 Y59.6090
G01 X8.3449 Y59.6927
G01 X8.3244 Y59.7747
G01 X8.2959 Y59.8544
G01 X8.2597 Y59.9308
G01 X8.2162 Y60.0034
G01 X8.1658 Y60.0713
G01 X8.1090 Y60.1340
G01 X8.0463 Y60.1908
G01 X7.9784 Y60.2412
G01 X7.9058 Y60.2847
G01 X7.8294 Y60.3209
G01 X7.7497 Y60.3494
G01 X7.6677 Y60.3699
G01 X7.5840 Y60.3823
G01 X7.4995 Y60.3865
G01 X7.4150 Y60.3823
G01 X7.3313 Y60.3699
G01 X7.2493 Y60.3494
G01 X7.1696 Y60.3209
G01 X7.0932 Y60.2847
G01 X7.0206 Y60.2412
G01 X6.9527 Y60.1908
G01 X6.8900 Y60.1340
G01 X6.8332 Y60.0713
G01 X6.7828 Y60.0034
G01 X6.7393 Y59.9308
G01 X6.7031 Y59.8544
G01 X6.6746 Y59.7747
G01 X6.6541 Y59.6927
G01 X6.6417 Y59.6090
G01 X6.6375 Y59.5245
G01 X6.6417 Y59.4400
G01 X6.6541 Y59.3563
G01 X6.6746 Y59.2743
G01 X6.7031 Y59.1946
G01 X6.7393 Y59.1182
G01 X6.7828 Y59.0456
G01 X6.8332 Y58.9777
G01 X6.8900 Y58.9150
G01 X6.9527 Y58.8582
G01 X7.0206 Y58.8078
G01 X7.0932 Y58.7643
G01 X7.1696 Y58.7281
G01 X7.2493 Y58.6996
G01 X7.3313 Y58.6791
G01 X7.4150 Y58.6667
G01 X7.4995 Y58.6625
G01 X7.5840 Y58.6667
G01 X7.6677 Y58.6791
G01 X7.7497 Y58.6996
G01 X7.8294 Y58.7281
G01 X7.9058 Y58.7643
G01 X7.9784 Y58.8078
G01 X8.0463 Y58.8582
G01 X8.1090 Y58.9150
G01 X8.1626 Y58.9739
G00 Z2.0000
G00 X7.4146 Y58.6620
G01 F60.00
G01 Z0.0000
G01 F80.00
G01 X7.2479 Y58.6951
G01 X7.0910 Y58.7602
G01 X6.9497 Y58.8546
G01 X6.8296 Y58.9747
G01 X6.7352 Y59.1160
G01 X6.6701 Y59.2729
G01 X6.6370 Y59.4396
G01 X6.6370 Y59.6094
G01 X6.6701 Y59.7761
G01 X6.7352 Y59.9330
G01 X6.8296 Y60.0743
G01 X6.9497 Y60.1944
G01 X7.0910 Y60.2888
G01 X7.2479 Y60.3539
G01 X7.4145 Y60.3870
G01 X7.5845 Y60.3870
G01 X7.7511 Y60.3539
G01 X7.9080 Y60.2888
G01 X8.0493 Y60.1944
G01 X8.1694 Y60.0743
G01 X8.2638 Y59.9330
G01 X8.3289 Y59.7761
G01 X8.3620 Y59.6095
G01 X8.3620 Y59.4395
G01 X8.3289 Y59.2729
G01 X8.2638 Y59.1160
G01 X8.1694 Y58.9747
G01 X8.0493 Y58.8546
G01 X7.9080 Y58.7602
G01 X7.7511 Y58.6951
G01 X7.5845 Y58.6620
G01 X7.4146 Y58.6620
G00 Z2.0000
G00 X6.9635 Y58.0155
G01 F60.00
G01 Z0.0000
G01 F80.00
G01 X7.0534 Y58.0614
G01 X7.2274 Y58.1179
G01 X7.4080 Y58.1465
G01 X7.5910 Y58.1465
G01 X7.7716 Y58.1179
G01 X7.9456 Y58.0614
G01 X8.0355 Y58.0155
G01 X7.8085 Y57.7885
G01 X7.7497 Y57.8094
G01 X7.6677 Y57.8299
G01 X7.5840 Y57.8423
G01 X7.4995 Y57.8465
G01 X7.4150 Y57.8423
G01 X7.3313 Y57.8299
G01 X7.2493 Y57.8094
G01 X7.1905 Y57.7885
G01 X6.9635 Y58.0155
G00 Z2.0000
G00 X6.3661 Y56.7124
G01 F60.00
G01 Z0.0000
G01 F80.00
G01 X6.3375 Y56.8930
G01 X6.3375 Y57.0760
G01 X6.3661 Y57.2566
G01 X6.4226 Y57.4306
G01 X6.4685 Y57.5205
G01 X6.6955 Y57.2935
G01 X6.6746 Y57.2347
G01 X6.6541 Y57.1527
G01 X6.6417 Y57.0690
G01 X6.6375 Y56.9845
G01 X6.6417 Y56.9000
G01 X6.6541 Y56.8163
G01 X6.6746 Y56.7343
G01 X6.6955 Y56.6755
G01 X6.4685 Y56.4485
G01 X6.4226 Y56.5384
G01 X6.3661 Y56.7124
G00 Z2.0000
G00 X6.9635 Y55.9535
G01 F60.00
G01 Z0.0000
G01 F80.00
G01 X7.1905 Y56.1805
G01 X7.2493 Y56.1596
G01 X7.3313 Y56.1391
G01 X7.4150 Y56.1267
G01 X7.4995 Y56.1225
G01 X7.5840 Y56.1267
G01 X7.6677 Y56.1391
G01 X7.7497 Y56.1596
G01 X7.8085 Y56.1805
G01 X8.0355 Y55.9535
G01 X7.9456 Y55.9076
G01 X7.7716 Y55.8511
G01 X7.5910 Y55.8225
G01 X7.4080 Y55.8225
G01 X7.2274 Y55.8511
G01 X7.0534 Y55.9076
G01 X6.9635 Y55.9535
G00 Z2.0000
G00 X8.3035 Y57.2935
G01 F60.00
G01 Z0.0000
G01 F80.00
G01 X8.5305 Y57.5205
G01 X8.5764 Y57.4306
G01 X8.6329 Y57.2566
G01 X8.6615 Y57.0760
G01 X8.6615 Y56.8930
G01 X8.6329 Y56.7124
G01 X8.5764 Y56.5384
G01 X8.5305 Y56.4485
G01 X8.3035 Y56.6755
G01 X8.3244 Y56.7343
G01 X8.3449 Y56.8163
G01 X8.3573 Y56.9000
G01 X8.3615 Y56.9845
G01 X8.3573 Y57.0690
G01 X8.3449 Y57.1527
G01 X8.3244 Y57.2347
G01 X8.3035 Y57.2935
G00 Z2.0000
G00 X8.1626 Y53.8939
G01 F60.00
G01 Z0.0000
G01 F80.00
G01 X8.1689 Y53.9015
G01 X8.2162 Y53.9656
G01 X8.2597 Y54.0382
G01 X8.2959 Y54.1146
G01 X8.3244 Y54.1943
G01 X8.3449 Y54.2763
G01 X8.3573 Y54.3600
G01 X8.3615 Y54.4445
G01 X8.3573 Y54.5290
G01 X8.3449 Y54.6127
G01 X8.3244 Y54.6947
G01 X8.2959 Y54.7744
G01 X8.2597 Y54.8508
G01 X8.2162 Y54.9234
G01 X8.1658 Y54.9913
G01 X8.1090 Y55.0540
G01 X8.0463 Y55.1108
G01 X7.9784 Y55.1612
G01 X7.9058 Y55.2047
G01 X7.8294 Y55.2409
G01 X7.7497 Y55.2694
G01 X7.6677 Y55.2899
G01 X7.5840 Y55.3023
G01 X7.4995 Y55.3065
G01 X7.4150 Y55.3023
G01 X7.3313 Y55.2899
G01 X7.2493 Y55.2694
G01 X7.1696 Y55.2409
G01 X7.0932 Y55.2047
G01 X7.0206 Y55.1612
G01 X6.9527 Y55.1108
G01 X6.8900 Y55.0540
G01 X6.8332 Y54.9913
G01 X6.7828 Y54.9234
G01 X6.7393 Y54.8508
G01 X6.7031 Y54.7744
G01 X6.6746 Y54.6947
G01 X6.6541 Y54.6127
G01 X6.6417 Y54.5290
G01 X6.6375 Y54.4445
G01 X6.6417 Y54.3600
G01 X6.6541 Y54.2763
G01 X6.6746 Y54.1943
G01 X6.7031 Y54.1146
G01 X6.7393 Y54.0382
G01 X6.7828 Y53.9656
G01 X6.8332 Y53.8977
G01 X6.8900 Y53.8350
G01 X6.9527 Y53.7782
G01 X7.0206 Y53.7278
G01 X7.0932 Y53.6843
G01 X7.1696 Y53.6481
G01 X7.2493 Y53.6196
G01 X7.3313 Y53.5991
G01 X7.4150 Y53.5867
G01 X7.4995 Y53.5825
G01 X7.5840 Y53.5867
G01 X7.6677 Y53.5991
G01 X7.7497 Y53.6196
G01 X7.8294 Y53.6481
G01 X7.9058 Y53.6843
G01 X7.9784 Y53.7278
G01 X8.0463 Y53.7782
G01 X8.1090 Y53.8350
G01 X8.1626 Y53.8939
G00 Z2.0000
G00 X7.4146 Y53.5820
G01 F60.00
G01 Z0.0000
G01 F80.00
G01 X7.2479 Y53.6151
G01 X7.0910 Y53.6802
G01 X6.9497 Y53.7746
G01 X6.8296 Y53.8947
G01 X6.7352 Y54.0360
G01 X6.6701 Y54.1929
G01 X6.6370 Y54.3596
G01 X6.6370 Y54.5294
G01 X6.6701 Y54.6961
G01 X6.7352 Y54.8530
G01 X6.8296 Y54.9943
G01 X6.9497 Y55.1144
G01 X7.0910 Y55.2088
G01 X7.2479 Y55.2739
G01 X7.4145 Y55.3070
G01 X7.5845 Y55.3070
G01 X7.7511 Y55.2739
G01 X7.9080 Y55.2088
G01 X8.0493 Y55.1144
G01 X8.1694 Y54.9943
G01 X8.2638 Y54.8530
G01 X8.3289 Y54.6961
G01 X8.3620 Y54.5295
G01 X8.3620 Y54.3595
G01 X8.3289 Y54.1929
G01 X8.2638 Y54.0360
G01 X8.1694 Y53.8947
G01 X8.0493 Y53.7746
G01 X7.9080 Y53.6802
G01 X7.7511 Y53.6151
G01 X7.5845 Y53.5820
G01 X7.4146 Y53.5820
G00 Z2.0000
G00 X4.7797 Y49.7784
G01 F60.00
G01 Z0.0000
G01 F80.00
G01 X4.8390 Y49.8811
G01 X6.5756 Y51.6177
G01 X6.5835 Y51.6266
G01 X6.5877 Y51.6324
G01 X6.5915 Y51.6385
G01 X6.6284 Y51.7062
G01 X6.6314 Y51.7130
G01 X6.6338 Y51.7199
G01 X6.6358 Y51.7270
G01 X6.6372 Y51.7342
G01 X6.6384 Y51.7464
G01 X6.6389 Y51.7994
G01 X6.6384 Y51.8097
G01 X6.6370 Y51.8195
G01 X6.6370 Y51.9894
G01 X6.6701 Y52.1561
G01 X6.7352 Y52.3130
G01 X6.8296 Y52.4543
G01 X6.9497 Y52.5744
G01 X7.0910 Y52.6688
G01 X7.2479 Y52.7339
G01 X7.4145 Y52.7670
G01 X7.5845 Y52.7670
G01 X7.7511 Y52.7339
G01 X7.9080 Y52.6688
G01 X8.0493 Y52.5744
G01 X8.1694 Y52.4543
G01 X8.2638 Y52.3130
G01 X8.3289 Y52.1561
G01 X8.3620 Y51.9895
G01 X8.3620 Y51.8195
G01 X8.3289 Y51.6529
G01 X8.2638 Y51.4960
G01 X8.1694 Y51.3547
G01 X8.0493 Y51.2346
G01 X7.9080 Y51.1402
G01 X7.7511 Y51.0751
G01 X7.5845 Y51.0420
G01 X7.4145 Y51.0420
G01 X7.4031 Y51.0436
G01 X7.3936 Y51.0438
G01 X7.3168 Y51.0372
G01 X7.3095 Y51.0363
G01 X7.2999 Y51.0343
G01 X7.2929 Y51.0321
G01 X7.2860 Y51.0294
G01 X7.2772 Y51.0251
G01 X7.2286 Y50.9936
G01 X7.2224 Y50.9891
G01 X7.2127 Y50.9806
G01 X5.7139 Y49.4818
G01 X5.7063 Y49.4727
G01 X5.6997 Y49.4628
G01 X5.6651 Y49.3994
G01 X5.6618 Y49.3928
G01 X5.6590 Y49.3860
G01 X5.6561 Y49.3766
G01 X5.6541 Y49.3670
G01 X5.6506 Y49.3358
G01 X5.6500 Y49.3251
G01 X5.6500 Y46.7789
G01 X5.6507 Y46.7670
G01 X5.6528 Y46.7553
G01 X5.6745 Y46.6813
G01 X5.6770 Y46.6744
G01 X5.6811 Y46.6655
G01 X5.6847 Y46.6591
G01 X5.6903 Y46.6510
G01 X5.7102 Y46.6264
G01 X5.7156 Y46.6205
G01 X6.2102 Y46.1259
G01 X6.2174 Y46.1197
G01 X6.2251 Y46.1142
G01 X6.2551 Y46.0976
G01 X6.2822 Y46.0803
G01 X6.2912 Y46.0757
G01 X6.2982 Y46.0729
G01 X6.3054 Y46.0706
G01 X6.3177 Y46.0675
G01 X6.3274 Y46.0657
G01 X6.3615 Y46.0621
G01 X6.5574 Y46.0621
G01 X6.5692 Y46.0634
G01 X6.5808 Y46.0661
G01 X6.6502 Y46.0865
G01 X6.6595 Y46.0900
G01 X6.6684 Y46.0944
G01 X6.6747 Y46.0982
G01 X6.6808 Y46.1026
G01 X6.6865 Y46.1073
G01 X6.6936 Y46.1143
G01 X6.7426 Y46.1709
G01 X6.7485 Y46.1789
G01 X6.7536 Y46.1874
G01 X6.7569 Y46.1941
G01 X6.7596 Y46.2010
G01 X6.7618 Y46.2081
G01 X6.7635 Y46.2154
G01 X6.7743 Y46.2894
G01 X6.7751 Y46.2966
G01 X6.7753 Y46.3063
G01 X6.7742 Y46.3184
G01 X6.7717 Y46.3302
G01 X6.7687 Y46.3394
G01 X6.7482 Y46.3930
G01 X6.7427 Y46.4041
G01 X6.7352 Y46.4160
G01 X6.6701 Y46.5729
G01 X6.6370 Y46.7396
G01 X6.6370 Y46.9094
G01 X6.6701 Y47.0761
G01 X6.7352 Y47.2330
G01 X6.8296 Y47.3743
G01 X6.9497 Y47.4944
G01 X7.0910 Y47.5888
G01 X7.2479 Y47.6539
G01 X7.4145 Y47.6870
G01 X7.5845 Y47.6870
G01 X7.7511 Y47.6539
G01 X7.9080 Y47.5888
G01 X8.0493 Y47.4944
G01 X8.1694 Y47.3743
G01 X8.2638 Y47.2330
G01 X8.3289 Y47.0761
G01 X8.3620 Y46.9095
G01 X8.3620 Y46.7395
G01 X8.3289 Y46.5729
G01 X8.2638 Y46.4160
G01 X8.2330 Y46.3698
G01 X8.2283 Y46.3615
G01 X8.2253 Y46.3550
G01 X8.2220 Y46.3461
G01 X8.2012 Y46.2794
G01 X8.1992 Y46.2722
G01 X8.1974 Y46.2625
G01 X8.1966 Y46.2526
G01 X8.1968 Y46.2427
G01 X8.1980 Y46.2328
G01 X8.2002 Y46.2231
G01 X8.2186 Y46.1557
G01 X8.2217 Y46.1463
G01 X8.2258 Y46.1372
G01 X8.2307 Y46.1286
G01 X8.2364 Y46.1205
G01 X8.2429 Y46.1130
G01 X8.2483 Y46.1078
G01 X8.3002 Y46.0611
G01 X8.3081 Y46.0547
G01 X8.3187 Y46.0480
G01 X8.3277 Y46.0436
G01 X8.3538 Y46.0338
G01 X8.3613 Y46.0313
G01 X8.4641 Y45.9720
G01 X8.7614 Y45.6747
G01 X8.7684 Y45.6683
G01 X8.7761 Y45.6626
G01 X8.7821 Y45.6588
G01 X8.8477 Y45.6230
G01 X8.8591 Y45.6180
G01 X8.8710 Y45.6145
G01 X8.8832 Y45.6125
G01 X8.8956 Y45.6120
G01 X8.9703 Y45.6172
G01 X8.9777 Y45.6180
G01 X8.9874 Y45.6199
G01 X8.9946 Y45.6220
G01 X9.0015 Y45.6246
G01 X9.0105 Y45.6289
G01 X9.0210 Y45.6354
G01 X9.0790 Y45.6787
G01 X9.0848 Y45.6834
G01 X9.0919 Y45.6903
G01 X9.0984 Y45.6979
G01 X9.1040 Y45.7060
G01 X9.1099 Y45.7170
G01 X9.1127 Y45.7238
G01 X9.1380 Y45.7916
G01 X9.1413 Y45.8035
G01 X9.1431 Y45.8157
G01 X9.1434 Y45.8280
G01 X9.1407 Y45.8689
G01 X9.1395 Y45.8768
G01 X9.1270 Y45.9396
G01 X9.1270 Y46.1094
G01 X9.1601 Y46.2761
G01 X9.2252 Y46.4330
G01 X9.3196 Y46.5743
G01 X9.4397 Y46.6944
G01 X9.5810 Y46.7888
G01 X9.7379 Y46.8539
G01 X9.9045 Y46.8870
G01 X10.0745 Y46.8870
G01 X10.2411 Y46.8539
G01 X10.3980 Y46.7888
G01 X10.5393 Y46.6944
G01 X10.6594 Y46.5743
G01 X10.7538 Y46.4330
G01 X10.7785 Y46.3736
G01 X10.7816 Y46.3672
G01 X10.7865 Y46.3590
G01 X10.7921 Y46.3513
G01 X10.8359 Y46.2969
G01 X10.8443 Y46.2878
G01 X10.8518 Y46.2812
G01 X10.8578 Y46.2768
G01 X10.8663 Y46.2717
G01 X10.8752 Y46.2674
G01 X10.8822 Y46.2648
G01 X10.9509 Y46.2420
G01 X10.9581 Y46.2401
G01 X10.9654 Y46.2387
G01 X10.9728 Y46.2379
G01 X10.9802 Y46.2376
G01 X10.9901 Y46.2381
G01 X10.9975 Y46.2391
G01 X11.0048 Y46.2407
G01 X11.0749 Y46.2586
G01 X11.0866 Y46.2627
G01 X11.0977 Y46.2682
G01 X11.1081 Y46.2751
G01 X11.1175 Y46.2832
G01 X11.1702 Y46.3397
G01 X11.1749 Y46.3454
G01 X11.1792 Y46.3515
G01 X11.1842 Y46.3600
G01 X11.1900 Y46.3725
G01 X11.2152 Y46.4330
G01 X11.3096 Y46.5743
G01 X11.4297 Y46.6944
G01 X11.5710 Y46.7888
G01 X11.7279 Y46.8539
G01 X11.8945 Y46.8870
G01 X12.0645 Y46.8870
G01 X12.2311 Y46.8539
G01 X12.3880 Y46.7888
G01 X12.5293 Y46.6944
G01 X12.6494 Y46.5743
G01 X12.7438 Y46.4330
G01 X12.8089 Y46.2761
G01 X12.8420 Y46.1095
G01 X12.8420 Y45.9395
G01 X12.8089 Y45.7729
G01 X12.7438 Y45.6160
G01 X12.6494 Y45.4747
G01 X12.5293 Y45.3546
G01 X12.3880 Y45.2602
G01 X12.2311 Y45.1951
G01 X12.0645 Y45.1620
G01 X11.8946 Y45.1620
G01 X11.7279 Y45.1951
G01 X11.5710 Y45.2602
G01 X11.4297 Y45.3546
G01 X11.3096 Y45.4747
G01 X11.2152 Y45.6160
G01 X11.1905 Y45.6754
G01 X11.1863 Y45.6839
G01 X11.1825 Y45.6900
G01 X11.1769 Y45.6977
G01 X11.1331 Y45.7521
G01 X11.1265 Y45.7595
G01 X11.1192 Y45.7662
G01 X11.1092 Y45.7735
G01 X11.1005 Y45.7785
G01 X11.0891 Y45.7834
G01 X11.0205 Y45.8063
G01 X11.0134 Y45.8084
G01 X11.0061 Y45.8099
G01 X10.9962 Y45.8111
G01 X10.9863 Y45.8114
G01 X10.9789 Y45.8109
G01 X10.9715 Y45.8099
G01 X10.9642 Y45.8083
G01 X10.8965 Y45.7910
G01 X10.8894 Y45.7889
G01 X10.8801 Y45.7853
G01 X10.8713 Y45.7808
G01 X10.8609 Y45.7739
G01 X10.8533 Y45.7675
G01 X10.8480 Y45.7623
G01 X10.7988 Y45.7093
G01 X10.7941 Y45.7036
G01 X10.7898 Y45.6975
G01 X10.7848 Y45.6890
G01 X10.7790 Y45.6765
G01 X10.7538 Y45.6160
G01 X10.6594 Y45.4747
G01 X10.5393 Y45.3546
G01 X10.3980 Y45.2602
G01 X10.2411 Y45.1951
G01 X10.0745 Y45.1620
G01 X9.9046 Y45.1620
G01 X9.8395 Y45.1749
G01 X9.8300 Y45.1761
G01 X9.8229 Y45.1764
G01 X9.8134 Y45.1760
G01 X9.7413 Y45.1695
G01 X9.7291 Y45.1674
G01 X9.7172 Y45.1637
G01 X9.7059 Y45.1586
G01 X9.6954 Y45.1521
G01 X9.6362 Y45.1063
G01 X9.6286 Y45.0998
G01 X9.6234 Y45.0945
G01 X9.6186 Y45.0888
G01 X9.6143 Y45.0827
G01 X9.6092 Y45.0742
G01 X9.6041 Y45.0629
G01 X9.5800 Y44.9947
G01 X9.5778 Y44.9876
G01 X9.5756 Y44.9779
G01 X9.5745 Y44.9680
G01 X9.5744 Y44.9556
G01 X9.5755 Y44.9457
G01 X9.5770 Y44.9384
G01 X9.5936 Y44.8680
G01 X9.5958 Y44.8610
G01 X9.5984 Y44.8540
G01 X9.6028 Y44.8452
G01 X9.6094 Y44.8348
G01 X9.6309 Y44.8065
G01 X9.6378 Y44.7983
G01 X14.1530 Y40.2831
G01 X14.2123 Y40.1804
G01 X14.2430 Y40.0658
G01 X14.2430 Y32.4552
G01 X14.2435 Y32.4457
G01 X14.2453 Y32.4340
G01 X14.2675 Y32.3576
G01 X14.2720 Y32.3461
G01 X14.2779 Y32.3352
G01 X14.2851 Y32.3251
G01 X14.2935 Y32.3160
G01 X14.3500 Y32.2669
G01 X14.3578 Y32.2607
G01 X14.3684 Y32.2542
G01 X14.3797 Y32.2491
G01 X14.3891 Y32.2460
G01 X14.4013 Y32.2435
G01 X14.4776 Y32.2327
G01 X14.4873 Y32.2325
G01 X14.4946 Y32.2330
G01 X14.5042 Y32.2344
G01 X14.5112 Y32.2361
G01 X14.5204 Y32.2391
G01 X14.5785 Y32.2617
G01 X14.5851 Y32.2651
G01 X14.5914 Y32.2690
G01 X14.7110 Y32.3488
G01 X14.8679 Y32.4139
G01 X15.0345 Y32.4470
G01 X15.2045 Y32.4470
G01 X15.3711 Y32.4139
G01 X15.5280 Y32.3488
G01 X15.6693 Y32.2544
G01 X15.7894 Y32.1343
G01 X15.8838 Y31.9930
G01 X15.9489 Y31.8361
G01 X15.9820 Y31.6695
G01 X15.9820 Y31.4995
G01 X15.9489 Y31.3329
G01 X15.8838 Y31.1760
G01 X15.7894 Y31.0347
G01 X15.6693 Y30.9145
G01 X15.6601 Y30.9075
G01 X15.6532 Y30.9010
G01 X15.6036 Y30.8421
G01 X15.5991 Y30.8363
G01 X15.5950 Y30.8301
G01 X15.5903 Y30.8215
G01 X15.5865 Y30.8125
G01 X15.5842 Y30.8055
G01 X15.5721 Y30.7489
G01 X15.5703 Y30.7362
G01 X15.5700 Y30.7285
G01 X15.5700 Y27.1589
G01 X15.5707 Y27.1470
G01 X15.5728 Y27.1353
G01 X15.5945 Y27.0613
G01 X15.5970 Y27.0544
G01 X15.6011 Y27.0455
G01 X15.6060 Y27.0370
G01 X15.6118 Y27.0291
G01 X15.6302 Y27.0064
G01 X15.6356 Y27.0005
G01 X17.8176 Y24.8187
G01 X17.8249 Y24.8126
G01 X17.8349 Y24.8061
G01 X17.9005 Y24.7703
G01 X17.9072 Y24.7671
G01 X17.9142 Y24.7644
G01 X17.9261 Y24.7612
G01 X17.9384 Y24.7595
G01 X17.9484 Y24.7592
G01 X18.0230 Y24.7644
G01 X18.0353 Y24.7661
G01 X18.0426 Y24.7678
G01 X18.0497 Y24.7700
G01 X18.0611 Y24.7750
G01 X18.0718 Y24.7812
G01 X18.1317 Y24.8260
G01 X18.1375 Y24.8307
G01 X18.1447 Y24.8376
G01 X18.1496 Y24.8432
G01 X18.1554 Y24.8512
G01 X18.1605 Y24.8598
G01 X18.1646 Y24.8688
G01 X18.1899 Y24.9366
G01 X18.1929 Y24.9460
G01 X18.1953 Y24.9582
G01 X18.1962 Y24.9681
G01 X18.1958 Y24.9805
G01 X18.1939 Y24.9928
G01 X18.1779 Y25.0659
G01 X18.1739 Y25.0776
G01 X18.1709 Y25.0844
G01 X18.1673 Y25.0909
G01 X18.1490 Y25.1183
G01 X18.0708 Y25.2165
G01 X17.9333 Y25.4352
G01 X17.8212 Y25.6679
G01 X17.7359 Y25.9118
G01 X17.6784 Y26.1636
G01 X17.6495 Y26.4203
G01 X17.6495 Y26.6787
G01 X17.6784 Y26.9354
G01 X17.7359 Y27.1872
G01 X17.8212 Y27.4311
G01 X17.9333 Y27.6638
G01 X18.0708 Y27.8825
G01 X18.0933 Y27.9108
G01 X18.3107 Y27.6934
G01 X18.2852 Y27.6586
G01 X18.1868 Y27.4944
G01 X18.1835 Y27.4879
G01 X18.1017 Y27.3149
G01 X18.0356 Y27.1301
