(G-CODE GENERATED BY FLATCAM v8.994 - www.flatcam.org - Version Date: 2020/11/7)

(Name: keyboard-mini-PTH.drl_cnc)
(Type: G-code from Geometry)
(Units: MM)

(Created on Sunday, 03 August 2025 at 10:00)

(This preprocessor is the default preprocessor used by FlatCAM.)
(It is made to work with MACH3 compatible motion controllers.)


(TOOLS DIAMETER: )
(Tool: 1 -> Dia: 0.762)
(Tool: 2 -> Dia: 0.8)
(Tool: 3 -> Dia: 1.0)
(Tool: 4 -> Dia: 2.2)

(FEEDRATE Z: )
(Tool: 1 -> Feedrate: 50.0)
(Tool: 2 -> Feedrate: 50.0)
(Tool: 3 -> Feedrate: 50.0)
(Tool: 4 -> Feedrate: 50.0)

(FEEDRATE RAPIDS: )
(Tool: 1 -> Feedrate Rapids: 1500)
(Tool: 2 -> Feedrate Rapids: 1500)
(Tool: 3 -> Feedrate Rapids: 1500)
(Tool: 4 -> Feedrate Rapids: 1500)

(Z_CUT: )
(Tool: 1 -> Z_Cut: -1.7)
(Tool: 2 -> Z_Cut: -1.7)
(Tool: 3 -> Z_Cut: -1.7)
(Tool: 4 -> Z_Cut: -1.7)

(Tools Offset: )
(Tool: 1 -> Offset Z: 0.0)
(Tool: 2 -> Offset Z: 0.0)
(Tool: 3 -> Offset Z: 0.0)
(Tool: 4 -> Offset Z: 0.0)

(Z_MOVE: )
(Tool: 1 -> Z_Move: 2)
(Tool: 2 -> Z_Move: 2)
(Tool: 3 -> Z_Move: 2)
(Tool: 4 -> Z_Move: 2)

(Z Toolchange: 15 mm)
(X,Y Toolchange: 0.0000, 0.0000 mm)
(Z Start: None mm)
(Z End: 0.5 mm)
(X,Y End: None mm)
(Steps per circle: 64)
(Preprocessor Excellon: default)

(X range:    1.8495 ...   94.2495  mm)
(Y range:    2.0495 ...   65.3995  mm)

(Spindle Speed: 5000 RPM)
G21
G90
G94

G01 F50.00

M5
G00 Z15.0000
T1
G00 X0.0000 Y0.0000                
M6
(MSG, Change to Tool Dia = 0.7620 ||| Total drills for tool T1 = 66)
M0
G00 Z15.0000

G01 F50.00
M03 S5000
G00 X22.7395 Y59.5245
G01 Z-1.7000
G01 Z0
G00 Z2.0000
G00 X22.6895 Y62.0645
G01 Z-1.7000
G01 Z0
G00 Z2.0000
G00 X3.1995 Y64.2995
G01 Z-1.7000
G01 Z0
G00 Z2.0000
G00 X7.4995 Y62.0645
G01 Z-1.7000
G01 Z0
G00 Z2.0000
G00 X7.4995 Y59.5245
G01 Z-1.7000
G01 Z0
G00 Z2.0000
G00 X7.4995 Y56.9845
G01 Z-1.7000
G01 Z0
G00 Z2.0000
G00 X7.4995 Y54.4445
G01 Z-1.7000
G01 Z0
G00 Z2.0000
G00 X7.4995 Y51.9045
G01 Z-1.7000
G01 Z0
G00 Z2.0000
G00 X7.4995 Y49.3645
G01 Z-1.7000
G01 Z0
G00 Z2.0000
G00 X7.4995 Y46.8245
G01 Z-1.7000
G01 Z0
G00 Z2.0000
G00 X9.9895 Y46.0245
G01 Z-1.7000
G01 Z0
G00 Z2.0000
G00 X11.9795 Y46.0245
G01 Z-1.7000
G01 Z0
G00 Z2.0000
G00 X7.4995 Y44.2845
G01 Z-1.7000
G01 Z0
G00 Z2.0000
G00 X7.4995 Y41.7445
G01 Z-1.7000
G01 Z0
G00 Z2.0000
G00 X7.4995 Y39.2045
G01 Z-1.7000
G01 Z0
G00 Z2.0000
G00 X7.4995 Y36.6645
G01 Z-1.7000
G01 Z0
G00 Z2.0000
G00 X7.4995 Y34.1245
G01 Z-1.7000
G01 Z0
G00 Z2.0000
G00 X7.4995 Y31.5845
G01 Z-1.7000
G01 Z0
G00 Z2.0000
G00 X10.0395 Y31.5845
G01 Z-1.7000
G01 Z0
G00 Z2.0000
G00 X12.5795 Y31.5845
G01 Z-1.7000
G01 Z0
G00 Z2.0000
G00 X15.1195 Y31.5845
G01 Z-1.7000
G01 Z0
G00 Z2.0000
G00 X17.6595 Y31.5845
G01 Z-1.7000
G01 Z0
G00 Z2.0000
G00 X20.1995 Y31.5845
G01 Z-1.7000
G01 Z0
G00 Z2.0000
G00 X20.1995 Y34.1245
G01 Z-1.7000
G01 Z0
G00 Z2.0000
G00 X22.7395 Y31.5845
G01 Z-1.7000
G01 Z0
G00 Z2.0000
G00 X19.9495 Y26.5495
G01 Z-1.7000
G01 Z0
G00 Z2.0000
G00 X19.9495 Y20.4195
G01 Z-1.7000
G01 Z0
G00 Z2.0000
G00 X19.9495 Y17.8795
G01 Z-1.7000
G01 Z0
G00 Z2.0000
G00 X19.9495 Y15.3395
G01 Z-1.7000
G01 Z0
G00 Z2.0000
G00 X19.9495 Y12.7995
G01 Z-1.7000
G01 Z0
G00 Z2.0000
G00 X19.9495 Y10.2595
G01 Z-1.7000
G01 Z0
G00 Z2.0000
G00 X2.9495 Y3.1495
G01 Z-1.7000
G01 Z0
G00 Z2.0000
G00 X19.9495 Y3.1495
G01 Z-1.7000
G01 Z0
G00 Z2.0000
G00 X36.3495 Y3.1495
G01 Z-1.7000
G01 Z0
G00 Z2.0000
G00 X40.6995 Y14.2395
G01 Z-1.7000
G01 Z0
G00 Z2.0000
G00 X40.6995 Y21.8595
G01 Z-1.7000
G01 Z0
G00 Z2.0000
G00 X60.1995 Y21.8595
G01 Z-1.7000
G01 Z0
G00 Z2.0000
G00 X60.1995 Y14.2395
G01 Z-1.7000
G01 Z0
G00 Z2.0000
G00 X78.6995 Y14.2395
G01 Z-1.7000
G01 Z0
G00 Z2.0000
G00 X93.1495 Y3.1495
G01 Z-1.7000
G01 Z0
G00 Z2.0000
G00 X78.6995 Y21.8595
G01 Z-1.7000
G01 Z0
G00 Z2.0000
G00 X78.6995 Y33.2395
G01 Z-1.7000
G01 Z0
G00 Z2.0000
G00 X78.6995 Y40.8595
G01 Z-1.7000
G01 Z0
G00 Z2.0000
G00 X93.1495 Y64.2995
G01 Z-1.7000
G01 Z0
G00 Z2.0000
G00 X78.6995 Y59.8595
G01 Z-1.7000
G01 Z0
G00 Z2.0000
G00 X78.6995 Y52.2395
G01 Z-1.7000
G01 Z0
G00 Z2.0000
G00 X59.4495 Y33.1795
G01 Z-1.7000
G01 Z0
G00 Z2.0000
G00 X59.4495 Y40.7995
G01 Z-1.7000
G01 Z0
G00 Z2.0000
G00 X59.4495 Y52.2395
G01 Z-1.7000
G01 Z0
G00 Z2.0000
G00 X59.4495 Y59.8595
G01 Z-1.7000
G01 Z0
G00 Z2.0000
G00 X38.4495 Y64.2995
G01 Z-1.7000
G01 Z0
G00 Z2.0000
G00 X40.4495 Y59.8595
G01 Z-1.7000
G01 Z0
G00 Z2.0000
G00 X40.4495 Y52.2395
G01 Z-1.7000
G01 Z0
G00 Z2.0000
G00 X40.4495 Y40.7995
G01 Z-1.7000
G01 Z0
G00 Z2.0000
G00 X40.4495 Y33.1795
G01 Z-1.7000
G01 Z0
G00 Z2.0000
G00 X22.7395 Y34.1245
G01 Z-1.7000
G01 Z0
G00 Z2.0000
G00 X22.7395 Y36.6645
G01 Z-1.7000
G01 Z0
G00 Z2.0000
G00 X22.7395 Y39.2045
G01 Z-1.7000
G01 Z0
G00 Z2.0000
G00 X22.7395 Y41.7445
G01 Z-1.7000
G01 Z0
G00 Z2.0000
G00 X22.7395 Y44.2845
G01 Z-1.7000
G01 Z0
G00 Z2.0000
G00 X22.7395 Y46.8245
G01 Z-1.7000
G01 Z0
G00 Z2.0000
G00 X22.7395 Y49.3645
G01 Z-1.7000
G01 Z0
G00 Z2.0000
G00 X22.7395 Y51.9045
G01 Z-1.7000
G01 Z0
G00 Z2.0000
G00 X22.7395 Y54.4445
G01 Z-1.7000
G01 Z0
G00 Z2.0000
G00 X19.9895 Y55.2545
G01 Z-1.7000
G01 Z0
G00 Z2.0000
G00 X22.7395 Y56.9845
G01 Z-1.7000
G01 Z0
G00 Z2.0000
M05
G00 Z0.50


